;FLAVOR:Marlin
;TIME:297
;Filament used: 0.159015m
;Layer height: 0.2
;MINX:114.244
;MINY:101.603
;MINZ:0.2
;MAXX:120.755
;MAXY:133.397
;MAXZ:5.6
;Generated with Cura_SteamEngine main
M140 S50
M105
M190 S50
M104 S210
M105
M109 S210
M82 ;absolute extrusion mode
; Ender 3 Custom Start G-code
G92 E0 ; Reset Extruder
G28 ; Home all axes
G1 Z2.0 F3000 ; Move Z Axis up little to prevent scratching of Heat Bed
G1 X0.1 Y20 Z0.3 F5000.0 ; Move to start position
G1 X0.1 Y200.0 Z0.3 F1500.0 E15 ; Draw the first line
G1 X0.4 Y200.0 Z0.3 F5000.0 ; Move to side a little
G1 X0.4 Y20 Z0.3 F1500.0 E30 ; Draw the second line
G92 E0 ; Reset Extruder
G1 Z2.0 F3000 ; Move Z Axis up little to prevent scratching of Heat Bed
G1 X5 Y20 Z0.3 F5000.0 ; Move over to prevent blob squish
G92 E0
G92 E0
G1 F2700 E-5
;LAYER_COUNT:28
;LAYER:0
M107
;MESH:tab.stl
G0 F6000 X117.21 Y122.73 Z0.2
;TYPE:WALL-OUTER
G1 F2700 E0
G1 F480 X117.71 Y122.73 E0.02079
G1 X117.71 Y112.23 E0.45733
G1 X117.21 Y112.23 E0.47811
G1 X117.21 Y122.73 E0.91465
;TIME_ELAPSED:7.188715
;LAYER:1
M106 S85
;MESH:tab.stl
G0 F7500 X117.21 Y122.73 Z0.4
;TYPE:WALL-OUTER
G1 F480 X117.71 Y122.73 E0.93544
G1 X117.71 Y112.23 E1.37198
G1 X117.21 Y112.23 E1.39277
G1 X117.21 Y122.73 E1.82931
;TIME_ELAPSED:10.039037
;LAYER:2
M106 S170
;MESH:tab.stl
G0 F9000 X117.21 Y122.73 Z0.6
;TYPE:WALL-OUTER
G1 F480 X117.71 Y122.73 E1.8501
G1 X117.71 Y112.23 E2.28663
G1 X117.21 Y112.23 E2.30742
G1 X117.21 Y122.48 E2.73357
G1 X117.21 Y122.73 E2.74396
;TIME_ELAPSED:12.889359
;LAYER:3
M106 S255
;MESH:tab.stl
G0 F9000 X117.21 Y122.73 Z0.8
;TYPE:WALL-OUTER
G1 F480 X117.71 Y122.73 E2.76475
G1 X117.71 Y112.23 E3.20129
G1 X117.21 Y112.23 E3.22208
G1 X117.21 Y122.73 E3.65861
;TIME_ELAPSED:15.739681
;LAYER:4
;MESH:tab.stl
G0 F9000 X117.21 Y122.73 Z1
;TYPE:WALL-OUTER
G1 F480 X117.71 Y122.73 E3.6794
G1 X117.71 Y112.23 E4.11594
G1 X117.21 Y112.23 E4.13673
G1 X117.21 Y122.73 E4.57327
;TIME_ELAPSED:18.590003
;LAYER:5
;MESH:tab.stl
G0 F9000 X117.21 Y122.73 Z1.2
;TYPE:WALL-OUTER
G1 F480 X117.71 Y122.73 E4.59406
G1 X117.71 Y112.23 E5.0306
G1 X117.21 Y112.23 E5.05138
G1 X117.21 Y122.73 E5.48792
;TIME_ELAPSED:21.440326
;LAYER:6
;MESH:tab.stl
G0 F9000 X117.21 Y122.73 Z1.4
;TYPE:WALL-OUTER
G1 F480 X117.71 Y122.73 E5.50871
G1 X117.71 Y112.23 E5.94525
G1 X117.21 Y112.23 E5.96604
G1 X117.21 Y122.73 E6.40258
;TIME_ELAPSED:24.290648
;LAYER:7
;MESH:tab.stl
G0 F9000 X117.21 Y122.73 Z1.6
;TYPE:WALL-OUTER
G1 F480 X117.71 Y122.73 E6.42336
G1 X117.71 Y112.23 E6.8599
G1 X117.21 Y112.23 E6.88069
G1 X117.21 Y122.48 E7.30684
G1 X117.21 Y122.73 E7.31723
;TIME_ELAPSED:27.140970
;LAYER:8
;MESH:tab.stl
G0 F9000 X117.21 Y122.73 Z1.8
;TYPE:WALL-OUTER
G1 F480 X117.71 Y122.73 E7.33802
G1 X117.71 Y112.23 E7.77456
G1 X117.21 Y112.23 E7.79534
G1 X117.21 Y122.73 E8.23188
;TIME_ELAPSED:29.991292
;LAYER:9
;MESH:tab.stl
G0 F9000 X117.21 Y122.73 Z2
;TYPE:WALL-OUTER
G1 F480 X117.71 Y122.73 E8.25267
G1 X117.71 Y112.23 E8.68921
G1 X117.21 Y112.23 E8.71
G1 X117.21 Y122.73 E9.14654
;TIME_ELAPSED:32.841614
;LAYER:10
;MESH:tab.stl
G0 F9000 X117.21 Y122.73 Z2.2
;TYPE:WALL-OUTER
G1 F480 X117.71 Y122.73 E9.16732
G1 X117.71 Y112.23 E9.60386
G1 X117.21 Y112.23 E9.62465
G1 X117.21 Y122.73 E10.06119
;TIME_ELAPSED:35.691936
;LAYER:11
;MESH:tab.stl
G0 F9000 X117.21 Y122.73 Z2.4
;TYPE:WALL-OUTER
G1 F480 X117.71 Y122.73 E10.08198
G1 X117.71 Y112.23 E10.51852
G1 X117.21 Y112.23 E10.53931
G1 X117.21 Y112.48 E10.5497
G1 X117.21 Y122.73 E10.97584
;TIME_ELAPSED:38.542258
;LAYER:12
;MESH:tab.stl
G0 F9000 X117.21 Y122.73 Z2.6
;TYPE:WALL-OUTER
G1 F480 X117.71 Y122.73 E10.99663
G1 X117.71 Y112.23 E11.43317
G1 X117.21 Y112.23 E11.45396
G1 X117.21 Y122.73 E11.8905
;TIME_ELAPSED:41.392580
;LAYER:13
;MESH:tab.stl
G0 F9000 X117.21 Y122.73 Z2.8
;TYPE:WALL-OUTER
G1 F480 X117.71 Y122.73 E11.91129
G1 X117.71 Y112.23 E12.34783
G1 X117.21 Y112.23 E12.36861
G1 X117.21 Y122.73 E12.80515
;TIME_ELAPSED:44.242902
;LAYER:14
;MESH:tab.stl
G0 F9000 X117.21 Y122.73 Z3
;TYPE:WALL-OUTER
G1 F480 X117.71 Y122.73 E12.82594
G1 X117.71 Y112.23 E13.26248
G1 X117.21 Y112.23 E13.28327
G1 X117.21 Y122.73 E13.71981
;TIME_ELAPSED:47.093224
;LAYER:15
;MESH:tab.stl
G0 F9000 X117.21 Y122.73 Z3.2
;TYPE:WALL-OUTER
G1 F480 X117.71 Y122.73 E13.74059
G1 X117.71 Y112.23 E14.17713
G1 X117.21 Y112.23 E14.19792
G1 X117.21 Y122.73 E14.63446
;TIME_ELAPSED:49.943546
;LAYER:16
;MESH:tab.stl
G0 F9000 X117.21 Y122.73 Z3.4
;TYPE:WALL-OUTER
G1 F480 X117.71 Y122.73 E14.65525
G1 X117.71 Y112.23 E15.09179
G1 X117.21 Y112.23 E15.11257
G1 X117.21 Y122.73 E15.54911
;TIME_ELAPSED:52.793868
;LAYER:17
;MESH:tab.stl
G0 F9000 X117.21 Y122.73 Z3.6
;TYPE:WALL-OUTER
G1 F480 X117.71 Y122.73 E15.5699
G1 X117.71 Y112.23 E16.00644
G1 X117.21 Y112.23 E16.02723
G1 X117.21 Y122.73 E16.46377
;TIME_ELAPSED:55.644191
;LAYER:18
;MESH:tab.stl
G0 F9000 X117.21 Y122.73 Z3.8
;TYPE:WALL-OUTER
G1 F480 X117.71 Y122.73 E16.48455
G1 X117.71 Y112.23 E16.92109
G1 X117.21 Y112.23 E16.94188
G1 X117.21 Y122.73 E17.37842
;TIME_ELAPSED:58.494513
;LAYER:19
;MESH:tab.stl
G0 F9000 X117.21 Y122.73 Z4
;TYPE:WALL-OUTER
G1 F480 X117.71 Y122.73 E17.39921
G1 X117.71 Y112.23 E17.83575
G1 X117.21 Y112.23 E17.85654
G1 X117.21 Y122.73 E18.29307
G1 F2700 E13.29307
;MESH:NONMESH
G0 F300 X117.21 Y122.73 Z4.2
G0 F9000 X117.43 Y122.51
G0 X117.374 Y112.394
G0 X117.374 Y111.315
G0 X116.736 Y106.229
;TIME_ELAPSED:61.954903
;LAYER:20
;TYPE:WALL-INNER
;MESH:tab.stl
G1 F2700 E18.29307
G1 F1500 X116.358 Y105.906 E18.30961
G1 X116.203 Y105.702 E18.31813
G1 X116.034 Y105.338 E18.33148
G1 X115.979 Y105.163 E18.33758
G1 X115.98 Y104.591 E18.35661
G1 X116.258 Y103.978 E18.37899
G1 X116.745 Y103.567 E18.40019
G1 X117.367 Y103.387 E18.42173
G1 X118.035 Y103.503 E18.44428
G1 X118.556 Y103.858 E18.46524
G1 X118.876 Y104.385 E18.48575
G1 X118.962 Y104.756 E18.49842
G1 X118.903 Y105.299 E18.51658
G1 X118.823 Y105.509 E18.52406
G1 X118.621 Y105.839 E18.53693
G1 X118.446 Y106.022 E18.54535
G1 X118.042 Y106.296 E18.56159
G1 X117.592 Y106.387 E18.57686
G1 X117.194 Y106.368 E18.59011
G1 X116.736 Y106.229 E18.60603
G0 F9000 X116.904 Y105.846
;TYPE:WALL-OUTER
G1 F1500 X116.584 Y105.573 E18.62002
G1 X116.397 Y105.17 E18.63479
G1 X116.381 Y105.12 E18.63654
G1 X116.38 Y104.672 E18.65144
G1 X116.585 Y104.225 E18.6678
G1 X116.932 Y103.932 E18.6829
G1 X117.392 Y103.796 E18.69886
G1 X117.88 Y103.884 E18.71535
G1 X118.259 Y104.136 E18.73049
G1 X118.503 Y104.546 E18.74636
G1 X118.557 Y104.806 E18.75519
G1 X118.504 Y105.262 E18.77046
G1 X118.256 Y105.667 E18.78625
G1 X117.913 Y105.9 E18.80004
G1 X117.64 Y105.989 E18.80959
G1 X117.175 Y105.966 E18.82508
G1 X116.904 Y105.846 E18.83494
G1 F2700 E13.83494
G0 F9000 X116.577 Y106.224
G0 X116.935 Y106.494
G0 X117.487 Y128.42
G0 X117.178 Y131.563
;TYPE:WALL-INNER
G1 F2700 E18.83494
G1 F1500 X116.804 Y131.416 E18.8483
G1 X116.344 Y131.029 E18.8683
G1 X116.112 Y130.538 E18.88636
G1 X116.06 Y130.352 E18.89278
G1 X116.058 Y129.911 E18.90745
G1 X116.113 Y129.66 E18.916
G1 X116.282 Y129.296 E18.92934
G1 X116.44 Y129.09 E18.93798
G1 X116.726 Y128.849 E18.95042
G1 X116.947 Y128.731 E18.95875
G1 X117.447 Y128.588 E18.97605
G1 X117.979 Y128.677 E18.99399
G1 X118.214 Y128.771 E19.00241
G1 X118.522 Y128.977 E19.01473
G1 X118.7 Y129.163 E19.02329
G1 X118.959 Y129.588 E19.03985
G1 X119.035 Y130.006 E19.05398
G1 X118.97 Y130.598 E19.07379
G1 X118.619 Y131.157 E19.09574
G1 X118.118 Y131.491 E19.11577
G1 X117.743 Y131.591 E19.12867
G1 X117.178 Y131.563 E19.14749
G0 F9000 X117.713 Y131.189
;TYPE:WALL-OUTER
G1 F1500 X117.258 Y131.164 E19.16265
G1 X117.015 Y131.069 E19.17132
G1 X116.664 Y130.768 E19.1867
G1 X116.475 Y130.37 E19.20136
G1 X116.458 Y130.308 E19.20349
G1 X116.458 Y129.867 E19.21816
G1 X116.663 Y129.426 E19.23434
G1 X117.018 Y129.126 E19.2498
G1 X117.465 Y128.998 E19.26526
G1 X117.953 Y129.077 E19.2817
G1 X118.335 Y129.333 E19.297
G1 X118.579 Y129.733 E19.31258
G1 X118.635 Y130.006 E19.32185
G1 X118.58 Y130.466 E19.33726
G1 X118.331 Y130.869 E19.35302
G1 X117.966 Y131.115 E19.36766
G1 X117.713 Y131.189 E19.37642
G1 F2700 E14.37642
G0 F9000 X117.586 Y131.684
G0 X117.838 Y132.779
G0 X117.765 Y132.989
;TYPE:WALL-INNER
G1 F2700 E19.37642
G1 F1500 X118.067 Y132.95 E19.38655
G1 X118.355 Y132.88 E19.39641
G1 X118.657 Y132.773 E19.40707
G1 X118.935 Y132.639 E19.41733
G1 X119.195 Y132.477 E19.42752
G1 X119.438 Y132.288 E19.43776
G1 X119.66 Y132.073 E19.44804
G1 X119.859 Y131.837 E19.4583
G1 X120.028 Y131.584 E19.46842
G1 X120.17 Y131.312 E19.47863
G1 X120.355 Y130.843 E19.4954
G1 X120.355 Y104.758 E20.36299
G1 X120.324 Y104.449 E20.37332
G1 X120.263 Y104.16 E20.38314
G1 X120.166 Y103.855 E20.39379
G1 X120.039 Y103.575 E20.40401
G1 X119.882 Y103.309 E20.41429
G1 X119.704 Y103.063 E20.42438
G1 X119.491 Y102.831 E20.43486
G1 X119.261 Y102.628 E20.44506
G1 X119.011 Y102.452 E20.45523
G1 X118.741 Y102.301 E20.46552
G1 X118.444 Y102.175 E20.47625
G1 X118.161 Y102.089 E20.48609
G1 X117.857 Y102.029 E20.4964
G1 X117.551 Y102.003 E20.50661
G1 X117.244 Y102.01 E20.51682
G1 X116.941 Y102.049 E20.52698
G1 X116.652 Y102.119 E20.53687
G1 X116.348 Y102.224 E20.54757
G1 X116.068 Y102.358 E20.5579
G1 X115.81 Y102.518 E20.56799
G1 X115.565 Y102.709 E20.57833
G1 X115.34 Y102.924 E20.58868
G1 X115.141 Y103.159 E20.59892
G1 X114.972 Y103.413 E20.60907
G1 X114.829 Y103.686 E20.61932
G1 X114.711 Y103.985 E20.63001
G1 X114.645 Y104.224 E20.63825
G1 X114.645 Y130.267 E21.50445
G1 X114.679 Y130.57 E21.51459
G1 X114.743 Y130.862 E21.52453
G1 X114.843 Y131.17 E21.5353
G1 X114.968 Y131.439 E21.54517
G1 X115.127 Y131.706 E21.5555
G1 X115.307 Y131.951 E21.56561
G1 X115.518 Y132.179 E21.57595
G1 X115.749 Y132.38 E21.58613
G1 X116 Y132.557 E21.59635
G1 X116.269 Y132.706 E21.60657
G1 X116.566 Y132.828 E21.61725
G1 X116.851 Y132.914 E21.62716
G1 X117.152 Y132.971 E21.63734
G1 X117.459 Y132.997 E21.64759
G1 X117.765 Y132.989 E21.65777
G0 F9000 X117.098 Y133.369
;TYPE:WALL-OUTER
G1 F1500 X117.448 Y133.397 E21.66945
G1 X117.796 Y133.389 E21.68103
G1 X118.141 Y133.344 E21.6926
G1 X118.469 Y133.264 E21.70383
G1 X118.811 Y133.143 E21.7159
G1 X119.128 Y132.99 E21.7276
G1 X119.424 Y132.806 E21.73919
G1 X119.701 Y132.59 E21.75088
G1 X119.953 Y132.347 E21.76252
G1 X120.179 Y132.078 E21.77421
G1 X120.373 Y131.788 E21.78581
G1 X120.535 Y131.478 E21.79745
G1 X120.668 Y131.14 E21.80953
G1 X120.755 Y130.83 E21.82024
G1 X120.755 Y104.738 E22.68806
G1 X120.72 Y104.387 E22.69979
G1 X120.65 Y104.058 E22.71098
G1 X120.54 Y103.711 E22.72309
G1 X120.395 Y103.391 E22.73477
G1 X120.217 Y103.089 E22.74643
G1 X120.014 Y102.809 E22.75793
G1 X119.771 Y102.545 E22.76987
G1 X119.509 Y102.314 E22.78148
G1 X119.225 Y102.113 E22.79306
G1 X118.917 Y101.941 E22.80479
G1 X118.581 Y101.798 E22.81694
G1 X118.258 Y101.7 E22.82816
G1 X117.913 Y101.632 E22.83986
G1 X117.563 Y101.603 E22.85154
G1 X117.214 Y101.61 E22.86315
G1 X116.869 Y101.655 E22.87472
G1 X116.539 Y101.734 E22.88601
G1 X116.196 Y101.854 E22.89809
G1 X115.876 Y102.006 E22.90988
G1 X115.581 Y102.189 E22.92142
G1 X115.303 Y102.406 E22.93315
G1 X115.048 Y102.65 E22.94489
G1 X114.821 Y102.918 E22.95657
G1 X114.627 Y103.209 E22.9682
G1 X114.465 Y103.519 E22.97984
G1 X114.331 Y103.858 E22.99196
G1 X114.245 Y104.17 E23.00273
G1 X114.245 Y130.289 E23.87145
G1 X114.283 Y130.636 E23.88306
G1 X114.357 Y130.966 E23.89431
G1 X114.469 Y131.316 E23.90653
G1 X114.614 Y131.627 E23.91794
G1 X114.793 Y131.928 E23.92959
G1 X114.998 Y132.206 E23.94108
G1 X115.239 Y132.467 E23.95289
G1 X115.502 Y132.696 E23.96449
G1 X115.788 Y132.897 E23.97612
G1 X116.095 Y133.067 E23.98779
G1 X116.432 Y133.206 E23.99992
G1 X116.755 Y133.303 E24.01113
G1 X117.098 Y133.369 E24.02275
G0 F9000 X117.062 Y132.531
;TYPE:SKIN
G1 F1100.9 X117.475 Y132.563 E24.04152
G1 F1102.9 X117.744 Y132.559 E24.05369
G1 F1107 X118.084 Y132.511 E24.06917
G1 F1111.1 X118.492 Y132.381 E24.08839
G1 F1113.2 X118.85 Y132.192 E24.10654
G1 F1111.1 X119.157 Y131.962 E24.12376
G1 F1115.2 X119.346 Y131.78 E24.1355
G1 F1111.1 X119.582 Y131.49 E24.15229
G1 F1109.1 X119.778 Y131.132 E24.17065
G1 F1117.3 X119.927 Y130.751 E24.18891
G1 F1140.7 X119.936 Y130.406 E24.20401
G1 F1178.8 X119.945 Y130.061 E24.21861
G1 F1174.2 X119.934 Y129.752 E24.23175
G1 F1125.7 X119.923 Y129.442 E24.2455
G1 F1188.1 X119.962 Y129.231 E24.25451
G1 F1336.3 X119.978 Y128.968 E24.26435
G1 F1442.3 X119.995 Y128.704 E24.2735
G1 F1500 X119.995 Y105.818 E25.03469
G1 F1237.1 X119.91 Y105.423 E25.05098
G1 F1067.6 X119.918 Y105.101 E25.06604
G1 F1100.9 X119.927 Y104.779 E25.08063
G1 F1109.1 X119.887 Y104.42 E25.09688
G1 X119.764 Y104.004 E25.1164
G1 F1105 X119.647 Y103.766 E25.12837
G1 F1098.9 X119.424 Y103.395 E25.14802
G1 F1115.2 X119.182 Y103.127 E25.16418
G1 F1121.5 X118.877 Y102.877 E25.18172
G1 F1113.2 X118.551 Y102.688 E25.19861
G1 F1115.2 X118.298 Y102.579 E25.21093
G1 F1109.1 X118.045 Y102.508 E25.22275
G1 F1096.9 X117.795 Y102.461 E25.23432
G1 F1100.9 X117.535 Y102.435 E25.24616
G1 F1107 X117.277 Y102.441 E25.25779
G1 F1105 X117.004 Y102.478 E25.27023
G1 F1109.1 X116.607 Y102.581 E25.28868
G1 F1121.5 X116.271 Y102.732 E25.30507
G1 F1117.3 X116.058 Y102.872 E25.31645
G1 F1100.9 X115.861 Y103.03 E25.3279
G1 F1102.9 X115.653 Y103.222 E25.3407
G1 F1107 X115.488 Y103.418 E25.35225
G1 F1105 X115.339 Y103.645 E25.36451
G1 F1098.9 X115.22 Y103.881 E25.37651
G1 F1100.9 X115.076 Y104.24 E25.39403
G1 F1147.2 X115.059 Y104.555 E25.40775
G1 F1178.8 X115.06 Y105.341 E25.44102
G1 F1219.5 X115.041 Y105.476 E25.4466
G1 F1321.6 X115.023 Y105.76 E25.45734
G1 F1435.4 X115.005 Y106.044 E25.46723
G1 F1500 X115.005 Y106.295 E25.47558
G1 F1496.3 X115.005 Y106.546 E25.48395
G1 F1492.5 X115.005 Y106.797 E25.49234
G1 X115.005 Y107.048 E25.50073
G1 F1488.8 X115.005 Y107.299 E25.50914
G1 F1485.1 X115.005 Y107.55 E25.51757
G1 F1481.5 X115.005 Y107.801 E25.52602
G1 F1477.8 X115.005 Y108.052 E25.5345
G1 X115.005 Y108.303 E25.54297
G1 F1474.2 X115.005 Y108.554 E25.55146
G1 F1470.6 X115.005 Y108.805 E25.55998
G1 F1467 X115.005 Y109.056 E25.56852
G1 F1463.4 X115.005 Y109.307 E25.57707
G1 F1459.9 X115.005 Y109.558 E25.58565
G1 X115.005 Y109.809 E25.59423
G1 F1456.3 X115.005 Y110.06 E25.60283
G1 F1452.8 X115.005 Y110.311 E25.61145
G1 F1449.3 X115.005 Y110.562 E25.62009
G1 F1445.8 X115.005 Y110.813 E25.62875
G1 X115.005 Y111.064 E25.63741
G1 F1442.3 X115.005 Y111.315 E25.64609
G1 F1438.8 X115.005 Y111.566 E25.6548
G1 F1435.4 X115.005 Y111.817 E25.66352
G1 F1432 X115.005 Y112.068 E25.67226
G1 F1428.6 X115.005 Y112.319 E25.68103
G1 X115.005 Y112.57 E25.6898
G1 F1425.2 X115.005 Y112.821 E25.69858
G1 F1421.8 X115.005 Y113.072 E25.70739
G1 F1418.4 X115.005 Y113.323 E25.71622
G1 F1415.1 X115.005 Y113.574 E25.72507
G1 X115.005 Y113.825 E25.73392
G1 F1411.8 X115.005 Y114.076 E25.74279
G1 F1408.5 X115.005 Y114.327 E25.75168
G1 F1405.2 X115.005 Y114.578 E25.76059
G1 F1401.9 X115.005 Y114.829 E25.76952
G1 F1398.6 X115.005 Y115.08 E25.77848
G1 X115.005 Y115.331 E25.78743
G1 F1395.3 X115.005 Y115.582 E25.7964
G1 F1392.1 X115.005 Y115.833 E25.8054
G1 F1388.9 X115.005 Y116.084 E25.81442
G1 F1385.7 X115.005 Y116.335 E25.82345
G1 X115.005 Y116.586 E25.83249
G1 F1382.5 X115.005 Y116.837 E25.84155
G1 F1379.3 X115.005 Y117.088 E25.85063
G1 F1376.1 X115.005 Y117.339 E25.85973
G1 F1373 X115.005 Y117.59 E25.86885
G1 F1369.9 X115.005 Y117.841 E25.87799
G1 X115.005 Y118.092 E25.88713
G1 F1366.7 X115.005 Y118.343 E25.89629
G1 F1363.6 X115.005 Y118.594 E25.90547
G1 F1360.5 X115.005 Y118.845 E25.91468
G1 F1357.5 X115.005 Y119.096 E25.9239
G1 X115.005 Y119.347 E25.93313
G1 F1354.4 X115.005 Y119.598 E25.94237
G1 F1351.4 X115.005 Y119.849 E25.95164
G1 F1348.3 X115.005 Y120.1 E25.96093
G1 F1345.3 X115.005 Y120.351 E25.97024
G1 X115.005 Y120.602 E25.97954
G1 F1342.3 X115.005 Y120.853 E25.98887
G1 F1339.3 X115.005 Y121.104 E25.99822
G1 F1336.3 X115.005 Y121.355 E26.00759
G1 F1333.3 X115.005 Y121.606 E26.01699
G1 F1330.4 X115.005 Y121.857 E26.0264
G1 X115.005 Y122.108 E26.03581
G1 F1327.4 X115.005 Y122.359 E26.04525
G1 F1324.5 X115.005 Y122.61 E26.0547
G1 F1321.6 X115.005 Y122.861 E26.06418
G1 F1318.7 X115.005 Y123.112 E26.07367
