;FLAVOR:Marlin
;TIME:4446
;Filament used: 3.25945m
;Layer height: 0.2
;MINX:86.973
;MINY:86.969
;MINZ:0.2
;MAXX:148.028
;MAXY:148.031
;MAXZ:7
;Generated with Cura_SteamEngine main
M140 S50
M105
M190 S50
M104 S210
M105
M109 S210
M82 ;absolute extrusion mode
; Ender 3 Custom Start G-code
G92 E0 ; Reset Extruder
G28 ; Home all axes
G1 Z2.0 F3000 ; Move Z Axis up little to prevent scratching of Heat Bed
G1 X0.1 Y20 Z0.3 F5000.0 ; Move to start position
G1 X0.1 Y200.0 Z0.3 F1500.0 E15 ; Draw the first line
G1 X0.4 Y200.0 Z0.3 F5000.0 ; Move to side a little
G1 X0.4 Y20 Z0.3 F1500.0 E30 ; Draw the second line
G92 E0 ; Reset Extruder
G1 Z2.0 F3000 ; Move Z Axis up little to prevent scratching of Heat Bed
G1 X5 Y20 Z0.3 F5000.0 ; Move over to prevent blob squish
G92 E0
G92 E0
G1 F2700 E-5
;LAYER_COUNT:35
;LAYER:0
M107
;MESH:cap M5.stl
G0 F6000 X123.773 Y99.49 Z0.2
;TYPE:WALL-OUTER
G1 F2700 E0
G1 F1200 X124.036 Y99.584 E0.00929
G1 X124.23 Y99.57 E0.01576
G1 X124.468 Y99.432 E0.02491
G1 X124.602 Y99.191 E0.03408
G1 X124.599 Y98.902 E0.04369
G1 X124.46 Y98.666 E0.0528
G1 X124.305 Y98.563 E0.05899
G1 X124.05 Y98.518 E0.0676
G1 X123.891 Y98.553 E0.07302
G1 X123.702 Y98.679 E0.08057
G1 X123.565 Y98.914 E0.08962
G1 X123.553 Y99.135 E0.09698
G1 X123.586 Y99.256 E0.10116
G1 X123.773 Y99.49 E0.11112
G1 F2700 E-4.88888
G0 F6000 X123.925 Y99.23
G0 X124.028 Y104.236
G0 X123.628 Y104.833
G1 F2700 E0.11112
G1 F1200 X123.859 Y105.028 E0.12117
G1 X124.093 Y105.073 E0.1291
G1 X124.366 Y105.001 E0.13849
G1 X124.469 Y104.922 E0.14281
G1 X124.597 Y104.69 E0.15162
G1 X124.611 Y104.458 E0.15935
G1 X124.501 Y104.201 E0.16865
G1 X124.362 Y104.083 E0.17471
G1 X124.162 Y104.011 E0.18178
G1 X123.971 Y104.02 E0.18814
G1 X123.724 Y104.147 E0.19738
G1 X123.637 Y104.247 E0.20179
G1 X123.547 Y104.523 E0.21144
G1 X123.558 Y104.621 E0.21472
G1 X123.628 Y104.833 E0.22215
G0 F6000 X124.163 Y104.542
;TYPE:WALL-INNER
G1 F757.1 X124.123 Y104.61 E0.22631
G1 X124.045 Y104.61 E0.23042
G1 X124.005 Y104.542 E0.23458
G1 X124.045 Y104.474 E0.23874
G1 X124.123 Y104.474 E0.24285
G1 F2700 E-4.75715
G0 F6000 X124.089 Y104.851
G0 X123.937 Y106.742
G0 X123.551 Y106.895
G1 F2700 E0.24285
G1 F1200 X122.868 Y106.631 E0.2672
G1 X122.425 Y106.275 E0.28611
G1 X122.154 Y105.962 E0.29988
G1 X121.892 Y105.521 E0.31694
G1 X121.708 Y104.966 E0.33638
G1 X121.689 Y104.499 E0.35193
G1 X121.694 Y104.386 E0.35569
G1 X121.763 Y103.925 E0.3712
G1 X121.982 Y103.347 E0.39175
G1 X122.359 Y102.876 E0.41182
G1 X122.754 Y102.544 E0.42898
G1 X123.208 Y102.311 E0.44595
G1 F1191.1 X123.655 Y102.183 E0.46154
G1 F995.9 X123.95 Y102.076 E0.47411
G1 F861.8 X124.168 Y102.07 E0.48421
G1 F1004.2 X124.642 Y102.206 E0.50381
G1 F1200 X125.02 Y102.336 E0.51711
G1 X125.397 Y102.537 E0.53132
G1 X125.693 Y102.762 E0.54368
G1 X126.06 Y103.189 E0.56241
G1 X126.311 Y103.618 E0.57894
G1 X126.445 Y104.147 E0.59709
G1 X126.479 Y104.625 E0.61303
G1 X126.429 Y105.038 E0.62687
G1 X126.29 Y105.471 E0.64199
G1 X126.073 Y105.874 E0.65722
G1 X125.848 Y106.16 E0.66932
G1 X125.586 Y106.41 E0.68136
G1 X125.23 Y106.647 E0.69559
G1 X124.791 Y106.833 E0.71145
G1 X124.279 Y106.949 E0.72891
G1 X123.551 Y106.895 E0.75319
G0 F6000 X124.242 Y106.547
;TYPE:WALL-OUTER
G1 F1200 X123.638 Y106.5 E0.77334
G1 X123.07 Y106.28 E0.7936
G1 X122.695 Y105.975 E0.80967
G1 X122.476 Y105.725 E0.82073
G1 X122.252 Y105.334 E0.83572
G1 X122.107 Y104.892 E0.85119
G1 X122.089 Y104.483 E0.8648
G1 X122.159 Y104.009 E0.88074
G1 X122.345 Y103.528 E0.89789
G1 X122.649 Y103.152 E0.91397
G1 X122.99 Y102.871 E0.92867
G1 X123.355 Y102.683 E0.94233
G1 X123.76 Y102.572 E0.95629
G1 X124.126 Y102.546 E0.9685
G1 X124.485 Y102.578 E0.98049
G1 X124.858 Y102.702 E0.99356
G1 X125.178 Y102.872 E1.00561
G1 X125.402 Y103.043 E1.01498
G1 X125.732 Y103.417 E1.03157
G1 X125.937 Y103.772 E1.04521
G1 X126.043 Y104.169 E1.05887
G1 X126.076 Y104.596 E1.07312
G1 X126.038 Y104.94 E1.08463
G1 X125.932 Y105.289 E1.09676
G1 X125.736 Y105.658 E1.11066
G1 X125.552 Y105.891 E1.12053
G1 X125.336 Y106.095 E1.13041
G1 X125.019 Y106.303 E1.14303
G1 X124.651 Y106.455 E1.15627
G1 X124.242 Y106.547 E1.17021
G1 F2700 E-3.82979
G0 F6000 X124.436 Y107.016
G0 X122.953 Y106.49
G0 X121.7 Y105.516
G0 X121 Y105.338
G0 X120.625 Y105.611
;TYPE:WALL-INNER
G1 F2700 E1.17021
G1 F1200 X120.336 Y105.732 E1.18063
G1 X110.002 Y105.732 E1.52434
G1 X109.813 Y105.657 E1.53111
G1 X109.635 Y105.506 E1.53887
G1 X109.505 Y105.204 E1.5498
G1 X109.505 Y103.95 E1.59151
G1 X109.604 Y103.619 E1.603
G1 X109.701 Y103.505 E1.60798
G1 X109.972 Y103.352 E1.61833
G1 X120.337 Y103.35 E1.96307
G1 X120.605 Y103.457 E1.97267
G1 X120.742 Y103.59 E1.97902
G1 X120.862 Y103.847 E1.98846
G1 X120.861 Y105.164 E2.03226
G1 X120.803 Y105.392 E2.04009
G1 X120.625 Y105.611 E2.04947
G0 F6000 X120.383 Y105.292
;TYPE:WALL-OUTER
G1 F1200 X120.296 Y105.33 E2.05263
G1 X110.077 Y105.331 E2.39251
G1 X109.971 Y105.282 E2.3964
G1 X109.907 Y105.166 E2.40081
G1 X109.905 Y103.95 E2.44125
G1 X109.923 Y103.865 E2.44414
G1 X110.001 Y103.778 E2.44803
G1 X110.087 Y103.75 E2.45103
G1 X120.298 Y103.753 E2.79065
G1 X120.376 Y103.785 E2.79346
G1 X120.462 Y103.915 E2.79864
G1 X120.461 Y105.196 E2.84125
G1 X120.383 Y105.292 E2.84536
G1 F2700 E-2.15464
G0 F6000 X120.383 Y105.632
G0 X120.689 Y105.56
G0 X120.689 Y103.522
G0 X120.261 Y103.169
G0 X120.261 Y100.423
G0 X120.337 Y100.242
;TYPE:WALL-INNER
G1 F2700 E2.84536
G1 F1200 X109.972 Y100.24 E3.1901
G1 X109.701 Y100.087 E3.20045
G1 X109.579 Y99.932 E3.20701
G1 X109.505 Y99.642 E3.21697
G1 X109.505 Y98.46 E3.25628
G1 X109.551 Y98.228 E3.26415
G1 X109.659 Y98.057 E3.27088
G1 X109.882 Y97.902 E3.27991
G1 X110.048 Y97.862 E3.28559
G1 X120.324 Y97.859 E3.62737
G1 X120.603 Y97.966 E3.63731
G1 X120.792 Y98.181 E3.64683
G1 X120.858 Y98.394 E3.65425
G1 X120.861 Y99.769 E3.69998
G1 X120.71 Y100.041 E3.71033
G1 X120.469 Y100.206 E3.72004
G1 X120.337 Y100.242 E3.72459
G0 F6000 X120.383 Y99.802
;TYPE:WALL-OUTER
G1 F1200 X120.298 Y99.839 E3.72767
G1 X110.087 Y99.842 E4.06729
G1 X110.001 Y99.814 E4.0703
G1 X109.905 Y99.714 E4.07491
G1 X109.905 Y98.46 E4.11662
G1 X109.999 Y98.289 E4.12311
G1 X110.086 Y98.26 E4.12616
G1 X120.291 Y98.261 E4.46558
G1 X120.417 Y98.333 E4.47041
G1 X120.46 Y98.438 E4.47418
G1 X120.461 Y99.687 E4.51572
G1 X120.383 Y99.802 E4.52034
G1 F2700 E-0.47966
G0 F6000 X120.383 Y100.142
G0 X120.964 Y99.983
G0 X121.685 Y99.989
G0 X122.296 Y100.486
G0 X123.959 Y101.7
G1 F2700 E4.52034
G0 F6000 X123.962 Y101.521
;TYPE:WALL-INNER
G1 F967.7 X123.663 Y101.426 E4.53328
G1 F1140.1 X123.623 Y101.406 E4.53485
G1 F1191.1 X123.116 Y101.244 E4.55268
G1 F1200 X122.668 Y100.996 E4.56972
G1 X122.286 Y100.636 E4.58717
G1 X122.022 Y100.283 E4.60184
G1 X121.825 Y99.862 E4.61729
G1 X121.73 Y99.508 E4.62949
G1 X121.694 Y99.214 E4.63934
G1 X121.69 Y99.141 E4.64177
G1 X121.711 Y98.598 E4.65984
G1 X121.904 Y98.046 E4.67929
G1 X122.186 Y97.587 E4.69721
G1 X122.395 Y97.35 E4.70772
G1 X122.863 Y96.984 E4.72748
G1 X123.246 Y96.804 E4.74156
G1 X123.601 Y96.701 E4.75385
G1 X124.11 Y96.654 E4.77085
G1 X124.545 Y96.698 E4.78539
G1 X125.003 Y96.825 E4.8012
G1 X125.464 Y97.09 E4.81889
G1 X125.892 Y97.465 E4.83781
G1 X126.025 Y97.631 E4.84489
G1 X126.305 Y98.152 E4.86456
G1 X126.477 Y98.728 E4.88455
G1 X126.462 Y99.47 E4.90924
G1 X126.293 Y99.979 E4.92708
G1 X126.001 Y100.519 E4.94749
G1 X125.524 Y100.982 E4.9696
G1 X125.099 Y101.221 E4.98582
G1 X124.668 Y101.374 E5.00103
G1 F1170.7 X124.496 Y101.411 E5.00703
G1 F981.6 X124.162 Y101.515 E5.02125
G1 F861.8 X123.962 Y101.521 E5.03052
G0 F6000 X124.06 Y101.045
;TYPE:WALL-OUTER
G1 F1200 X123.695 Y101.009 E5.04272
G1 X123.274 Y100.876 E5.05741
G1 X122.904 Y100.673 E5.07144
G1 X122.57 Y100.353 E5.08683
G1 X122.378 Y100.091 E5.09763
G1 X122.21 Y99.741 E5.11054
G1 X122.124 Y99.439 E5.12099
G1 X122.091 Y99.166 E5.13013
G1 X122.113 Y98.654 E5.14718
G1 X122.277 Y98.203 E5.16314
G1 X122.495 Y97.843 E5.17714
G1 X122.696 Y97.616 E5.18722
G1 X123.095 Y97.317 E5.2038
G1 X123.374 Y97.186 E5.21406
G1 X123.659 Y97.101 E5.22395
G1 X124.09 Y97.057 E5.23836
G1 X124.456 Y97.091 E5.25058
G1 X124.832 Y97.193 E5.26354
G1 X125.224 Y97.415 E5.27852
G1 X125.657 Y97.791 E5.2976
G1 X125.926 Y98.291 E5.31648
G1 X126.076 Y98.782 E5.33356
G1 X126.063 Y99.401 E5.35415
G1 X125.917 Y99.834 E5.36935
G1 X125.674 Y100.285 E5.38639
G1 X125.264 Y100.671 E5.40512
G1 X124.937 Y100.855 E5.4176
G1 X124.564 Y100.988 E5.43077
G1 X124.06 Y101.045 E5.44764
G1 F2700 E0.44764
G0 F6000 X124.092 Y101.793
G0 X122.481 Y102.979
G0 X121.515 Y104.359
G0 X119.121 Y111.815
G0 X111.034 Y110.052
G1 F2700 E5.44764
G1 F708 X111.036 Y110.701 E5.48423
G0 F6000 X111.166 Y111.113
G0 X111.397 Y113.022
G0 X111.2 Y113.426
;TYPE:WALL-INNER
G1 F1200 X110.944 Y113.623 E5.49497
G1 X110.696 Y113.677 E5.50341
G1 X109.44 Y113.676 E5.54519
G1 X109.165 Y113.565 E5.55505
G1 X109 Y113.388 E5.5631
G1 X108.916 Y113.131 E5.57209
G1 X108.914 Y110.043 E5.6748
G1 X108.941 Y109.872 E5.68056
G1 X109.023 Y109.705 E5.68674
G1 X109.231 Y109.522 E5.69596
G1 X109.514 Y109.452 E5.70566
G1 X110.772 Y109.456 E5.7475
G1 X110.776 Y109.38 E5.75003
G1 X110.982 Y109.003 E5.76432
G1 X111.244 Y108.86 E5.77424
G1 X125.456 Y108.865 E6.24694
G1 X125.742 Y108.988 E6.25729
G1 X125.925 Y109.229 E6.26736
G1 X125.969 Y109.42 E6.27388
G1 X125.97 Y110.719 E6.31708
G1 X125.858 Y110.994 E6.32696
G1 X125.703 Y111.143 E6.33411
G1 X125.385 Y111.243 E6.3452
G1 X119.168 Y111.243 E6.55197
G1 F1137.4 X118.797 Y111.265 E6.56501
G1 F1030 X118.425 Y111.287 E6.57945
G1 F993.8 X118.095 Y111.282 E6.59271
G1 F1016.9 X117.765 Y111.276 E6.60566
G1 F1043.5 X117.435 Y111.27 E6.61829
G1 X117.151 Y111.276 E6.62915
G1 F1016.9 X116.867 Y111.282 E6.6403
G1 F991.7 X116.583 Y111.288 E6.65173
G1 F1027.8 X116.211 Y111.266 E6.6662
G1 F1137.4 X115.838 Y111.244 E6.67931
G1 F1200 X111.372 Y111.243 E6.82785
G1 X111.296 Y111.18 E6.83114
G1 X111.296 Y113.111 E6.89536
G1 X111.2 Y113.426 E6.90632
G1 F2700 E1.90632
G0 F6000 X111.397 Y113.022
G0 X111.124 Y113.504
G0 X109.59 Y113.777
G1 F2700 E6.90632
G0 F6000 X109.342 Y113.18
;TYPE:WALL-OUTER
G1 F1200 X109.314 Y113.095 E6.90929
G1 X109.314 Y110.049 E7.0106
G1 X109.359 Y109.924 E7.01502
G1 X109.514 Y109.852 E7.02071
G1 X110.723 Y109.853 E7.06092
G1 F892.2 X111.034 Y110.052 E7.07743
G1 F790.8 X111.103 Y109.743 E7.09341
G1 F1023.5 X111.173 Y109.433 E7.10581
G1 F1200 X111.242 Y109.307 E7.11059
G1 X111.337 Y109.262 E7.11408
G1 X125.399 Y109.261 E7.58179
G1 X125.494 Y109.302 E7.58523
G1 X125.566 Y109.417 E7.58974
G1 X125.568 Y110.678 E7.63168
G1 X125.521 Y110.775 E7.63527
G1 X125.414 Y110.839 E7.63941
G1 X111.372 Y110.843 E8.10645
G1 F888.9 X111.036 Y110.701 E8.12283
G1 F786.9 X110.966 Y111.01 E8.1389
G1 F1021.3 X110.896 Y111.319 E8.15128
G1 F1200 X110.896 Y113.088 E8.21012
G1 X110.853 Y113.202 E8.21417
G1 X110.755 Y113.277 E8.21828
G1 X109.479 Y113.274 E8.26072
G1 X109.342 Y113.18 E8.26624
G0 F6000 X109.59 Y113.777
G0 X111.35 Y113.464
G0 X111.469 Y111.416
G0 X115.84 Y111.405
G0 X116.98 Y111.491
G0 X112.998 Y113.682
G0 X111.667 Y116.554
G0 X112.144 Y119.078
G0 X112.425 Y119.83
G0 X112.804 Y120.519
G0 X113.284 Y121.164
G0 X113.853 Y121.731
G0 X114.484 Y122.201
G0 X116.708 Y123.295
G0 X116.713 Y123.194
;TYPE:WALL-INNER
G1 F1200 X115.908 Y123.023 E8.29361
G1 X115.137 Y122.74 E8.32093
G1 X114.39 Y122.331 E8.34926
G1 X113.76 Y121.861 E8.3754
G1 X113.168 Y121.273 E8.40315
G1 X112.674 Y120.614 E8.43054
G1 X112.282 Y119.903 E8.45755
G1 X111.992 Y119.133 E8.48491
G1 X111.814 Y118.315 E8.51276
G1 X111.758 Y117.554 E8.53814
G1 X111.758 Y117.467 E8.54103
G1 X111.814 Y116.69 E8.56694
G1 X111.984 Y115.897 E8.59392
G1 X112.274 Y115.112 E8.62175
G1 X112.692 Y114.36 E8.65037
G1 X113.149 Y113.75 E8.67572
G1 X113.736 Y113.157 E8.70347
G1 X114.433 Y112.642 E8.73229
G1 X115.064 Y112.295 E8.75624
G1 X115.83 Y111.999 E8.78356
G1 F1156.6 X116.098 Y111.924 E8.79316
G1 F1078.7 X116.367 Y111.848 E8.8035
G1 F1010.5 X116.635 Y111.772 E8.81451
G1 F991.7 X116.936 Y111.756 E8.82664
G1 F1016.9 X117.238 Y111.74 E8.83851
G1 F1043.5 X117.539 Y111.724 E8.85004
G1 F1045.8 X117.816 Y111.739 E8.86062
G1 F1019.1 X118.094 Y111.755 E8.87153
G1 F993.8 X118.372 Y111.77 E8.88271
G1 F1012.7 X118.639 Y111.846 E8.89365
G1 F1081.1 X118.906 Y111.921 E8.90389
G1 F1159.4 X119.173 Y111.996 E8.91344
G1 F1200 X119.926 Y112.284 E8.94025
G1 X120.611 Y112.657 E8.96619
G1 X121.3 Y113.182 E8.995
G1 X121.844 Y113.723 E9.02052
G1 X122.342 Y114.386 E9.0481
G1 X122.737 Y115.109 E9.0755
G1 X123.026 Y115.882 E9.10295
G1 X123.199 Y116.673 E9.12988
G1 X123.257 Y117.499 E9.15742
G1 X123.196 Y118.324 E9.18494
G1 X123.032 Y119.099 E9.21128
G1 X122.734 Y119.895 E9.23955
G1 X122.355 Y120.59 E9.26588
G1 X121.874 Y121.24 E9.29278
G1 X121.276 Y121.841 E9.32098
G1 X120.631 Y122.327 E9.34784
G1 X119.907 Y122.727 E9.37535
G1 X119.137 Y123.016 E9.4027
G1 X118.365 Y123.186 E9.42899
G1 X117.529 Y123.25 E9.45688
G1 X116.713 Y123.194 E9.48409
G0 F6000 X117.496 Y122.85
;TYPE:WALL-OUTER
G1 F1200 X116.732 Y122.793 E9.50957
G1 X116.005 Y122.635 E9.53431
G1 X115.284 Y122.368 E9.55988
G1 X114.612 Y121.998 E9.5854
G1 X114.009 Y121.548 E9.61042
G1 X113.456 Y120.993 E9.63648
G1 X112.998 Y120.377 E9.66201
G1 X112.645 Y119.734 E9.68641
G1 X112.373 Y119.012 E9.71207
G1 X112.21 Y118.259 E9.7377
G1 X112.157 Y117.525 E9.76217
G1 X112.21 Y116.744 E9.78821
G1 X112.366 Y116.021 E9.81281
G1 X112.644 Y115.269 E9.83948
G1 X112.998 Y114.623 E9.86398
G1 X113.455 Y114.008 E9.88946
G1 X114.008 Y113.453 E9.91552
G1 X114.626 Y112.993 E9.94114
G1 X115.283 Y112.634 E9.96604
G1 X115.972 Y112.373 E9.99055
G1 X116.737 Y112.205 E10.0166
G1 X117.481 Y112.151 E10.04141
G1 X118.279 Y112.205 E10.06801
G1 X119.033 Y112.371 E10.09369
G1 X119.709 Y112.624 E10.1177
G1 X120.406 Y113.004 E10.1441
G1 X121.018 Y113.466 E10.16961
G1 X121.534 Y113.979 E10.19381
G1 X122.012 Y114.616 E10.22029
G1 X122.377 Y115.288 E10.24573
G1 X122.642 Y115.993 E10.27078
G1 X122.802 Y116.733 E10.29596
G1 X122.857 Y117.499 E10.3215
G1 X122.798 Y118.278 E10.34749
G1 X122.643 Y119.003 E10.37215
G1 X122.371 Y119.726 E10.39784
G1 X122.011 Y120.386 E10.42284
G1 X121.553 Y121.001 E10.44835
G1 X120.997 Y121.552 E10.47438
G1 X120.404 Y121.998 E10.49906
G1 X119.738 Y122.364 E10.52434
G1 X119.014 Y122.635 E10.55005
G1 X118.266 Y122.796 E10.5755
G1 X117.496 Y122.85 E10.60117
G1 F2700 E5.60117
G0 F6000 X117.459 Y123.349
G0 X116.81 Y140.531
G0 X116.155 Y140.693
;TYPE:WALL-INNER
G1 F2700 E10.60117
G1 F1200 X117.506 Y140.732 E10.64612
G1 X118.857 Y140.693 E10.69108
G1 X120.203 Y140.575 E10.73602
G1 X121.541 Y140.379 E10.78099
G1 X122.852 Y140.108 E10.82552
G1 X124.171 Y139.757 E10.87092
G1 X125.459 Y139.332 E10.91603
G1 X126.707 Y138.832 E10.96074
G1 X127.934 Y138.262 E11.00574
G1 X129.122 Y137.621 E11.05064
G1 X130.272 Y136.911 E11.09559
G1 X131.379 Y136.136 E11.14054
G1 X132.441 Y135.297 E11.18555
G1 X133.448 Y134.399 E11.23043
G1 X134.405 Y133.441 E11.27547
G1 X135.304 Y132.433 E11.32039
G1 X136.143 Y131.372 E11.36538
G1 X136.917 Y130.267 E11.41025
G1 X137.628 Y129.115 E11.45528
G1 X138.268 Y127.927 E11.50016
G1 X138.837 Y126.707 E11.54493
G1 X139.339 Y125.448 E11.59001
G1 X139.768 Y124.151 E11.63545
G1 X140.112 Y122.859 E11.67992
G1 X140.386 Y121.534 E11.72492
G1 X140.582 Y120.198 E11.76983
G1 X140.7 Y118.85 E11.81484
G1 X140.739 Y117.5 E11.85976
G1 X140.7 Y116.148 E11.90474
G1 X140.582 Y114.804 E11.94962
G1 X140.386 Y113.466 E11.99459
G1 X140.112 Y112.143 E12.03953
G1 X139.767 Y110.85 E12.08404
G1 X139.339 Y109.554 E12.12944
G1 X138.839 Y108.297 E12.17443
G1 X138.268 Y107.073 E12.21935
G1 X137.626 Y105.883 E12.26432
G1 X136.917 Y104.733 E12.30926
G1 X136.143 Y103.626 E12.35419
G1 X135.306 Y102.567 E12.39908
G1 X134.405 Y101.557 E12.4441
G1 X133.45 Y100.601 E12.48904
G1 X132.441 Y99.701 E12.53401
G1 X131.381 Y98.864 E12.57893
G1 X130.276 Y98.091 E12.62379
G1 X129.124 Y97.381 E12.66879
G1 X127.934 Y96.738 E12.71378
G1 X126.71 Y96.168 E12.75869
G1 X125.439 Y95.663 E12.80418
G1 X124.171 Y95.245 E12.84858
G1 X122.864 Y94.894 E12.8936
G1 X121.541 Y94.621 E12.93853
G1 X120.203 Y94.425 E12.9835
G1 X118.859 Y94.307 E13.02838
G1 X117.508 Y94.268 E13.07333
