;FLAVOR:Marlin
;TIME:13518
;Filament used: 8.65563m
;Layer height: 0.2
;MINX:65.798
;MINY:65.708
;MINZ:0.2
;MAXX:169.232
;MAXY:169.294
;MAXZ:16
;Generated with Cura_SteamEngine main
M140 S50
M105
M190 S50
M104 S210
M105
M109 S210
M82 ;absolute extrusion mode
; Ender 3 Custom Start G-code
G92 E0 ; Reset Extruder
G28 ; Home all axes
G1 Z2.0 F3000 ; Move Z Axis up little to prevent scratching of Heat Bed
G1 X0.1 Y20 Z0.3 F5000.0 ; Move to start position
G1 X0.1 Y200.0 Z0.3 F1500.0 E15 ; Draw the first line
G1 X0.4 Y200.0 Z0.3 F5000.0 ; Move to side a little
G1 X0.4 Y20 Z0.3 F1500.0 E30 ; Draw the second line
G92 E0 ; Reset Extruder
G1 Z2.0 F3000 ; Move Z Axis up little to prevent scratching of Heat Bed
G1 X5 Y20 Z0.3 F5000.0 ; Move over to prevent blob squish
G92 E0
G92 E0
G1 F2700 E-5
;LAYER_COUNT:80
;LAYER:0
M107
;MESH:Box.stl
G0 F6000 X114.412 Y166.542 Z0.2
;TYPE:WALL-INNER
G1 F2700 E0
G1 F1200 X117.349 Y166.644 E0.09774
G1 X120.286 Y166.571 E0.19546
G1 X123.217 Y166.323 E0.29329
G1 X126.125 Y165.898 E0.39104
G1 X129.005 Y165.301 E0.48887
G1 X131.83 Y164.538 E0.58619
G1 X134.631 Y163.598 E0.68446
G1 X137.355 Y162.496 E0.78219
G1 X140.012 Y161.233 E0.88004
G1 X142.588 Y159.814 E0.97786
G1 X145.073 Y158.245 E1.07561
G1 X147.461 Y156.528 E1.17343
G1 X149.74 Y154.673 E1.27117
G1 X151.906 Y152.684 E1.36898
G1 X153.946 Y150.569 E1.46671
G1 X155.875 Y148.316 E1.56536
G1 X157.634 Y145.993 E1.66227
G1 X159.267 Y143.547 E1.76009
G1 X160.747 Y141.009 E1.85781
G1 X162.077 Y138.383 E1.95572
G1 X163.246 Y135.686 E2.05348
G1 X164.258 Y132.91 E2.15176
G1 X165.089 Y130.107 E2.24899
G1 X165.759 Y127.242 E2.34686
G1 X166.254 Y124.347 E2.44454
G1 X166.577 Y121.423 E2.54239
G1 X166.723 Y118.487 E2.64016
G1 X166.694 Y115.545 E2.73801
G1 X166.489 Y112.613 E2.83577
G1 X166.109 Y109.696 E2.93361
G1 X165.554 Y106.812 E3.03129
G1 X164.832 Y103.976 E3.12863
G1 X163.936 Y101.162 E3.22685
G1 X162.875 Y98.419 E3.32467
G1 X161.652 Y95.745 E3.42247
G1 X160.271 Y93.149 E3.52027
G1 X158.739 Y90.641 E3.61802
G1 X157.058 Y88.227 E3.71586
G1 X155.238 Y85.92 E3.81359
G1 X153.281 Y83.725 E3.9114
G1 X151.198 Y81.651 E4.00917
G1 X148.992 Y79.705 E4.10701
G1 X146.676 Y77.897 E4.20473
G1 X144.256 Y76.23 E4.30247
G1 X141.74 Y74.709 E4.40025
G1 X139.135 Y73.341 E4.49812
G1 X136.455 Y72.131 E4.59592
G1 X133.694 Y71.079 E4.69419
G1 X130.903 Y70.205 E4.79146
G1 X128.049 Y69.494 E4.88929
G1 X125.136 Y68.951 E4.98784
G1 X122.244 Y68.588 E5.08479
G1 X119.311 Y68.397 E5.18255
G1 X116.369 Y68.383 E5.2804
G1 X113.435 Y68.544 E5.37813
G1 X110.514 Y68.881 E5.47593
G1 X107.619 Y69.39 E5.57369
G1 X104.758 Y70.075 E5.67154
G1 X101.959 Y70.924 E5.76882
G1 X99.186 Y71.946 E5.86712
G1 X96.494 Y73.129 E5.96492
G1 X93.879 Y74.468 E6.06263
G1 X91.349 Y75.964 E6.16039
G1 X88.911 Y77.609 E6.25821
G1 X86.574 Y79.397 E6.35608
G1 X84.353 Y81.32 E6.45379
G1 X82.246 Y83.373 E6.55164
G1 X80.269 Y85.547 E6.64937
G1 X78.424 Y87.837 E6.74718
G1 X76.72 Y90.232 E6.84494
G1 X75.161 Y92.726 E6.94277
G1 X73.756 Y95.307 E7.04051
G1 X72.509 Y97.962 E7.13807
G1 X71.418 Y100.698 E7.23604
G1 X70.492 Y103.504 E7.33432
G1 X69.744 Y106.332 E7.43161
G1 X69.16 Y109.215 E7.52945
G1 X68.75 Y112.126 E7.62722
G1 X68.516 Y115.058 E7.72505
G1 X68.458 Y117.996 E7.82279
G1 X68.575 Y120.937 E7.92068
G1 X68.868 Y123.859 E8.01836
G1 X69.335 Y126.76 E8.11609
G1 X69.976 Y129.63 E8.2139
G1 X70.783 Y132.443 E8.31123
G1 X71.771 Y135.253 E8.4103
G1 X72.904 Y137.939 E8.50726
G1 X74.208 Y140.576 E8.6051
G1 X75.663 Y143.127 E8.70278
G1 X77.272 Y145.59 E8.80063
G1 X79.023 Y147.951 E8.8984
G1 X80.914 Y150.203 E8.9962
G1 X82.935 Y152.339 E9.09401
G1 X85.079 Y154.35 E9.19178
G1 X87.339 Y156.228 E9.28951
G1 X89.711 Y157.969 E9.38737
G1 X92.18 Y159.563 E9.48512
G1 X94.742 Y161.007 E9.58294
G1 X97.386 Y162.297 E9.68078
G1 X100.099 Y163.427 E9.77853
G1 X102.873 Y164.389 E9.87619
G1 X105.706 Y165.185 E9.97406
G1 X108.579 Y165.811 E10.07186
G1 X111.482 Y166.265 E10.16959
G1 X114.412 Y166.542 E10.26747
G0 F6000 X114.386 Y166.942
;TYPE:WALL-OUTER
G1 F1200 X117.347 Y167.044 E10.36602
G1 X120.308 Y166.971 E10.46453
G1 X123.263 Y166.721 E10.56316
G1 X126.195 Y166.292 E10.66172
G1 X129.098 Y165.69 E10.76033
G1 X131.946 Y164.921 E10.85845
G1 X134.77 Y163.974 E10.95751
G1 X137.516 Y162.862 E11.05605
G1 X140.194 Y161.589 E11.15467
G1 X142.792 Y160.158 E11.25332
G1 X145.297 Y158.577 E11.35185
G1 X147.704 Y156.846 E11.45046
G1 X150.002 Y154.976 E11.549
G1 X152.186 Y152.97 E11.64763
G1 X154.242 Y150.838 E11.74614
G1 X156.187 Y148.567 E11.84559
G1 X157.96 Y146.225 E11.94329
G1 X159.607 Y143.759 E12.04192
G1 X161.099 Y141.2 E12.14044
G1 X162.439 Y138.553 E12.23912
G1 X163.618 Y135.834 E12.33769
G1 X164.638 Y133.036 E12.43674
G1 X165.476 Y130.209 E12.53481
G1 X166.151 Y127.321 E12.63346
G1 X166.65 Y124.403 E12.73192
G1 X166.976 Y121.455 E12.83057
G1 X167.123 Y118.495 E12.92914
G1 X167.094 Y115.529 E13.02779
G1 X166.887 Y112.573 E13.12635
G1 X166.504 Y109.632 E13.22499
G1 X165.944 Y106.725 E13.32346
G1 X165.217 Y103.866 E13.42158
G1 X164.314 Y101.029 E13.5206
G1 X163.244 Y98.263 E13.61924
G1 X162.011 Y95.568 E13.71781
G1 X160.619 Y92.951 E13.8164
G1 X159.074 Y90.422 E13.91497
G1 X157.38 Y87.989 E14.01358
G1 X155.544 Y85.663 E14.11214
G1 X153.571 Y83.45 E14.21075
G1 X151.472 Y81.359 E14.30929
G1 X149.248 Y79.397 E14.40793
G1 X146.913 Y77.575 E14.50644
G1 X144.473 Y75.894 E14.60499
G1 X141.936 Y74.361 E14.70358
G1 X139.311 Y72.981 E14.80221
G1 X136.609 Y71.761 E14.90082
G1 X133.825 Y70.701 E14.9999
G1 X131.011 Y69.82 E15.09797
G1 X128.134 Y69.103 E15.19659
G1 X125.198 Y68.555 E15.29593
G1 X122.282 Y68.19 E15.39367
G1 X119.325 Y67.997 E15.49223
G1 X116.359 Y67.983 E15.59088
G1 X113.401 Y68.145 E15.68941
G1 X110.456 Y68.485 E15.78801
G1 X107.538 Y68.998 E15.88656
G1 X104.654 Y69.689 E15.98519
G1 X101.831 Y70.544 E16.0833
G1 X99.036 Y71.575 E16.18238
G1 X96.322 Y72.767 E16.28097
G1 X93.686 Y74.118 E16.37949
G1 X91.135 Y75.626 E16.47805
G1 X88.677 Y77.284 E16.57667
G1 X86.322 Y79.087 E16.67532
G1 X84.082 Y81.025 E16.77383
G1 X81.958 Y83.095 E16.87248
G1 X79.965 Y85.287 E16.97101
G1 X78.105 Y87.595 E17.0696
G1 X76.387 Y90.01 E17.16818
G1 X74.815 Y92.524 E17.26679
G1 X73.399 Y95.126 E17.36532
G1 X72.142 Y97.803 E17.46369
G1 X71.042 Y100.561 E17.56244
G1 X70.108 Y103.39 E17.66153
G1 X69.354 Y106.241 E17.75962
G1 X68.766 Y109.147 E17.85823
G1 X68.352 Y112.082 E17.95681
G1 X68.116 Y115.038 E18.05544
G1 X68.058 Y118 E18.15398
G1 X68.176 Y120.965 E18.25267
G1 X68.471 Y123.911 E18.35115
G1 X68.942 Y126.836 E18.44969
G1 X69.588 Y129.729 E18.54828
G1 X70.402 Y132.565 E18.64641
G1 X71.398 Y135.397 E18.74626
G1 X72.54 Y138.105 E18.84401
G1 X73.854 Y140.764 E18.94266
G1 X75.321 Y143.335 E19.04111
G1 X76.944 Y145.819 E19.1398
G1 X78.709 Y148.199 E19.23835
G1 X80.615 Y150.469 E19.33694
G1 X82.653 Y152.623 E19.43557
G1 X84.814 Y154.65 E19.53411
G1 X87.093 Y156.543 E19.63265
G1 X89.484 Y158.299 E19.73132
G1 X91.973 Y159.905 E19.82984
G1 X94.556 Y161.361 E19.92846
G1 X97.221 Y162.662 E20.0271
G1 X99.957 Y163.801 E20.12567
G1 X102.753 Y164.771 E20.2241
G1 X105.609 Y165.573 E20.32276
G1 X108.505 Y166.205 E20.42135
G1 X111.432 Y166.662 E20.51988
G1 X114.386 Y166.942 E20.61858
G0 F6000 X114.434 Y166.183
;TYPE:SKIN
G1 F1200 X117.35 Y166.283 E20.71562
G1 X120.265 Y166.211 E20.8126
G1 X123.175 Y165.965 E20.90973
G1 X126.062 Y165.542 E21.00678
G1 X128.922 Y164.949 E21.10393
G1 X131.712 Y164.196 E21.20004
G1 X134.506 Y163.262 E21.29803
G1 X137.21 Y162.166 E21.39507
G1 X139.847 Y160.911 E21.4922
G1 X142.406 Y159.501 E21.58938
G1 X144.871 Y157.946 E21.68632
G1 X147.241 Y156.241 E21.78342
G1 X149.504 Y154.4 E21.88045
G1 X151.655 Y152.426 E21.97755
G1 X153.679 Y150.327 E22.07454
G1 X155.595 Y148.089 E22.17253
G1 X157.34 Y145.784 E22.26868
G1 X158.963 Y143.356 E22.36582
G1 X160.43 Y140.836 E22.4628
G1 X161.75 Y138.228 E22.56002
G1 X162.911 Y135.552 E22.65704
G1 X163.916 Y132.797 E22.75458
G1 X164.74 Y130.016 E22.85105
G1 X165.405 Y127.169 E22.94829
G1 X165.897 Y124.297 E23.04521
G1 X166.218 Y121.394 E23.14235
G1 X166.362 Y118.479 E23.23942
G1 X166.334 Y115.559 E23.33654
G1 X166.13 Y112.649 E23.43357
G1 X165.752 Y109.752 E23.53074
G1 X165.2 Y106.892 E23.62762
G1 X164.486 Y104.075 E23.72428
G1 X163.597 Y101.276 E23.82195
G1 X162.543 Y98.558 E23.91891
G1 X161.329 Y95.905 E24.01595
G1 X159.959 Y93.329 E24.11299
G1 X158.437 Y90.839 E24.21006
G1 X156.769 Y88.442 E24.30719
G1 X154.961 Y86.152 E24.40423
G1 X153.018 Y83.974 E24.50131
G1 X150.952 Y81.914 E24.59834
G1 X148.762 Y79.981 E24.6955
G1 X146.464 Y78.189 E24.79242
G1 X144.06 Y76.533 E24.88951
G1 X141.563 Y75.025 E24.98653
G1 X138.978 Y73.665 E25.08369
G1 X136.322 Y72.467 E25.18059
G1 X133.576 Y71.419 E25.27835
G1 X130.792 Y70.547 E25.37538
G1 X127.972 Y69.847 E25.47202
G1 X125.081 Y69.306 E25.56985
G1 X122.21 Y68.947 E25.66608
G1 X119.299 Y68.757 E25.76311
G1 X116.379 Y68.744 E25.86023
G1 X113.466 Y68.903 E25.95726
G1 X110.569 Y69.238 E26.05426
G1 X107.695 Y69.743 E26.15131
G1 X104.854 Y70.423 E26.24847
G1 X102.074 Y71.264 E26.34507
G1 X99.323 Y72.281 E26.44262
G1 X96.65 Y73.454 E26.53971
G1 X94.053 Y74.785 E26.63677
G1 X91.542 Y76.268 E26.73377
G1 X89.122 Y77.902 E26.83089
G1 X86.803 Y79.677 E26.92802
G1 X84.598 Y81.586 E27.02502
G1 X82.505 Y83.625 E27.12221
G1 X80.544 Y85.782 E27.21917
G1 X78.711 Y88.054 E27.31626
G1 X77.02 Y90.433 E27.41334
G1 X75.473 Y92.907 E27.51039
G1 X74.078 Y95.47 E27.60744
G1 X72.84 Y98.105 E27.70427
G1 X71.751 Y100.835 E27.80203
G1 X70.839 Y103.606 E27.89906
G1 X70.096 Y106.414 E27.99567
G1 X69.516 Y109.276 E28.09279
G1 X69.108 Y112.167 E28.1899
G1 X68.876 Y115.076 E28.28696
G1 X68.819 Y117.991 E28.38393
G1 X68.935 Y120.913 E28.4812
G1 X69.225 Y123.811 E28.57807
G1 X69.689 Y126.692 E28.67512
G1 X70.326 Y129.542 E28.77225
G1 X71.126 Y132.332 E28.86879
G1 X72.107 Y135.12 E28.96709
G1 X73.232 Y137.788 E29.06339
G1 X74.527 Y140.407 E29.16057
G1 X75.969 Y142.937 E29.25743
G1 X77.566 Y145.383 E29.35459
G1 X79.306 Y147.727 E29.45168
G1 X81.183 Y149.962 E29.54875
G1 X83.19 Y152.083 E29.64587
G1 X85.316 Y154.078 E29.74284
G1 X87.561 Y155.943 E29.83992
G1 X89.918 Y157.672 E29.93714
G1 X92.365 Y159.252 E30.03402
G1 X94.91 Y160.686 E30.13118
G1 X97.534 Y161.968 E30.22831
G1 X100.243 Y163.094 E30.32589
G1 X102.981 Y164.045 E30.42229
G1 X105.793 Y164.834 E30.51943
G1 X108.646 Y165.457 E30.61656
G1 X111.528 Y165.907 E30.71358
G1 X114.434 Y166.183 E30.81066
G1 F2700 E25.81066
G0 F6000 X114.309 Y166.431
G0 X110.046 Y165.878
G0 X108.609 Y165.654
G0 X105.745 Y165.029
G0 X102.922 Y164.236
G0 X100.157 Y163.277
G0 X97.452 Y162.151
G0 X94.817 Y160.865
G0 X92.263 Y159.425
G0 X89.803 Y157.836
G0 X89.133 Y157.345
G0 X85.613 Y154.662
G1 F2700 E30.81066
G0 F6000 X85.631 Y154.079
G1 F1200 X81.079 Y149.527 E31.02478
G0 F6000 X80.726 Y149.824
G0 X78.35 Y146.875
G0 X78.72 Y146.602
G1 F1200 X88.501 Y156.383 E31.48484
G0 F6000 X88.227 Y156.755
G0 X90.226 Y158.182
G0 X90.477 Y157.794
G1 F1200 X77.312 Y144.628 E32.10411
G0 F6000 X76.927 Y144.879
G0 X75.863 Y143.249
G0 X76.248 Y142.999
G1 F1200 X92.076 Y158.827 E32.84861
G0 F6000 X91.825 Y159.214
G0 X93.217 Y160.033
G0 X93.445 Y159.63
G1 F1200 X75.467 Y141.652 E33.69424
G0 F6000 X75.067 Y141.879
G0 X74.318 Y140.566
G0 X74.718 Y140.338
G1 F1200 X94.74 Y160.36 E34.63601
G0 F6000 X94.512 Y160.763
G0 X95.682 Y161.353
G0 X95.885 Y160.939
G1 F1200 X74.16 Y139.214 E35.65789
G0 F6000 X73.747 Y139.417
G0 X73.193 Y138.298
G0 X73.606 Y138.095
G1 F1200 X96.992 Y161.48 E36.75787
G0 F6000 X96.79 Y161.894
G0 X97.861 Y162.386
G0 X98.038 Y161.96
G1 F1200 X73.145 Y137.068 E37.92874
G0 F6000 X72.72 Y137.245
G0 X72.455 Y136.616
G0 X72.733 Y136.09
G1 F1200 X99.005 Y162.362 E39.16449
G0 F6000 X98.827 Y162.788
G0 X99.31 Y162.989
G0 X99.972 Y162.763
G1 F1200 X72.321 Y135.112 E40.46511
G0 F6000 X72.007 Y134.232
G1 F1200 X100.875 Y163.1 E41.82297
G0 F6000 X101.742 Y163.401
G1 F1200 X71.7 Y133.36 E43.23603
G0 F6000 X71.393 Y132.487
G1 F1200 X102.609 Y163.703 E44.70434
G0 F6000 X103.435 Y163.963
G1 F1200 X71.146 Y131.674 E46.22312
G0 F6000 X70.918 Y130.881
G1 F1200 X104.221 Y164.184 E47.78959
G0 F6000 X105.008 Y164.405
G1 F1200 X70.69 Y130.087 E49.4038
G0 F6000 X70.478 Y129.31
G1 F1200 X105.795 Y164.626 E51.06498
G0 F6000 X106.522 Y164.787
G1 F1200 X70.316 Y128.581 E52.768
G0 F6000 X70.153 Y127.853
G1 F1200 X107.244 Y164.944 E54.51265
G0 F6000 X107.968 Y165.102
G1 F1200 X69.99 Y127.125 E56.29899
G0 F6000 X69.846 Y126.415
G1 F1200 X108.69 Y165.259 E58.12609
G0 F6000 X109.361 Y165.364
G1 F1200 X69.738 Y125.741 E59.98984
G0 F6000 X69.629 Y125.066
G1 F1200 X110.032 Y165.469 E61.89027
G0 F6000 X110.702 Y165.574
G1 F1200 X69.52 Y124.392 E63.82735
G0 F6000 X69.416 Y123.722
G1 F1200 X111.373 Y165.679 E65.80087
G0 F6000 X112.01 Y165.75
G1 F1200 X69.353 Y123.093 E67.80733
G0 F6000 X69.291 Y122.465
G1 F1200 X112.635 Y165.81 E69.84612
G0 F6000 X113.26 Y165.868
G1 F1200 X69.228 Y121.837 E71.91723
G0 F6000 X69.165 Y121.208
G1 F1200 X113.885 Y165.928 E74.02072
G0 F6000 X114.506 Y165.983
G1 F1200 X69.123 Y120.6 E76.1554
G0 F6000 X69.099 Y120.01
G1 F1200 X115.092 Y166.003 E78.31877
G0 F6000 X115.678 Y166.024
G1 F1200 X69.075 Y119.421 E80.51083
G0 F6000 X69.051 Y118.832
G1 F1200 X116.263 Y166.044 E82.73154
G0 F6000 X116.85 Y166.064
G1 F1200 X69.028 Y118.243 E84.98091
G0 F6000 X69.024 Y117.673
G1 F1200 X117.431 Y166.08 E87.25783
G0 F6000 X117.982 Y166.066
G1 F1200 X69.035 Y117.118 E89.56017
G0 F6000 X69.046 Y116.564
G1 F1200 X118.535 Y166.052 E91.88796
G0 F6000 X119.086 Y166.038
G1 F1200 X69.057 Y116.009 E94.24117
G0 F6000 X69.068 Y115.454
G1 F1200 X119.638 Y166.025 E96.61985
G0 F6000 X120.191 Y166.011
G1 F1200 X69.089 Y114.91 E99.02351
G0 F6000 X69.131 Y114.386
G1 F1200 X120.715 Y165.97 E101.44986
G0 F6000 X121.237 Y165.926
G1 F1200 X69.173 Y113.862 E103.89879
G0 F6000 X69.215 Y113.338
G1 F1200 X121.758 Y165.882 E106.37028
G0 F6000 X122.28 Y165.838
G1 F1200 X69.256 Y112.814 E108.86436
G0 F6000 X69.298 Y112.29
G1 F1200 X122.801 Y165.793 E111.38098
G0 F6000 X123.314 Y165.74
G1 F1200 X69.362 Y111.789 E113.91869
G0 F6000 X69.432 Y111.293
G1 F1200 X123.808 Y165.668 E116.47635
G0 F6000 X124.301 Y165.596
G1 F1200 X69.502 Y110.797 E119.05393
G0 F6000 X69.572 Y110.302
G1 F1200 X124.795 Y165.524 E121.65142
G0 F6000 X125.288 Y165.452
G1 F1200 X69.642 Y109.805 E124.26887
G0 F6000 X69.712 Y109.31
G1 F1200 X125.782 Y165.38 E126.90623
G0 F6000 X126.263 Y165.295
G1 F1200 X69.807 Y108.839 E129.56174
G0 F6000 X69.903 Y108.369
G1 F1200 X126.731 Y165.197 E132.23476
G0 F6000 X127.2 Y165.1
G1 F1200 X69.998 Y107.899 E134.92534
G0 F6000 X70.093 Y107.428
G1 F1200 X127.668 Y165.003 E137.63349
G0 F6000 X128.136 Y164.906
G1 F1200 X70.188 Y106.958 E140.35919
G0 F6000 X70.284 Y106.488
G1 F1200 X128.605 Y164.808 E143.10241
G0 F6000 X129.063 Y164.702
G1 F1200 X70.4 Y106.039 E145.86173
G0 F6000 X70.519 Y105.592
G1 F1200 X129.509 Y164.581 E148.63642
G0 F6000 X129.954 Y164.461
G1 F1200 X70.637 Y105.144 E151.42651
G0 F6000 X70.756 Y104.697
G1 F1200 X130.399 Y164.34 E154.23193
G0 F6000 X130.845 Y164.22
G1 F1200 X70.874 Y104.25 E157.05276
G0 F6000 X70.993 Y103.803
G1 F1200 X131.29 Y164.1 E159.88895
G0 F6000 X131.731 Y163.975
G1 F1200 X71.126 Y103.37 E162.73962
G0 F6000 X71.266 Y102.944
G1 F1200 X132.156 Y163.834 E165.6037
G0 F6000 X132.58 Y163.693
G1 F1200 X71.406 Y102.519 E168.48114
G0 F6000 X71.546 Y102.093
G1 F1200 X133.004 Y163.551 E171.37193
G0 F6000 X133.428 Y163.41
G1 F1200 X71.686 Y101.667 E174.27611
G0 F6000 X71.826 Y101.242
G1 F1200 X133.852 Y163.268 E177.19362
G0 F6000 X134.276 Y163.126
G1 F1200 X71.97 Y100.82 E180.12431
G0 F6000 X72.132 Y100.416
G1 F1200 X134.687 Y162.971 E183.0667
G0 F6000 X135.089 Y162.808
G1 F1200 X72.293 Y100.012 E186.02043
G0 F6000 X72.455 Y99.608
G1 F1200 X135.492 Y162.645 E188.9855
G0 F6000 X135.895 Y162.482
G1 F1200 X72.617 Y99.204 E191.9619
G0 F6000 X72.778 Y98.799
G1 F1200 X136.297 Y162.319 E194.94967
G0 F6000 X136.7 Y162.155
G1 F1200 X72.939 Y98.395 E197.94877
G0 F6000 X73.11 Y98
G1 F1200 X137.102 Y161.992 E200.95875
G0 F6000 X137.487 Y161.811
G1 F1200 X73.29 Y97.615 E203.97836
G0 F6000 X73.471 Y97.23
