;FLAVOR:Marlin
;TIME:5239
;Filament used: 3.32511m
;Layer height: 0.2
;MINX:93.198
;MINY:93.577
;MINZ:0.2
;MAXX:141.802
;MAXY:141.423
;MAXZ:21
;Generated with Cura_SteamEngine main
M140 S50
M105
M190 S50
M104 S210
M105
M109 S210
M82 ;absolute extrusion mode
; Ender 3 Custom Start G-code
G92 E0 ; Reset Extruder
G28 ; Home all axes
G1 Z2.0 F3000 ; Move Z Axis up little to prevent scratching of Heat Bed
G1 X0.1 Y20 Z0.3 F5000.0 ; Move to start position
G1 X0.1 Y200.0 Z0.3 F1500.0 E15 ; Draw the first line
G1 X0.4 Y200.0 Z0.3 F5000.0 ; Move to side a little
G1 X0.4 Y20 Z0.3 F1500.0 E30 ; Draw the second line
G92 E0 ; Reset Extruder
G1 Z2.0 F3000 ; Move Z Axis up little to prevent scratching of Heat Bed
G1 X5 Y20 Z0.3 F5000.0 ; Move over to prevent blob squish
G92 E0
G92 E0
G1 F2700 E-5
;LAYER_COUNT:105
;LAYER:0
M107
;MESH:Riser M5.stl
G0 F6000 X114.995 Y120.354 Z0.2
;TYPE:WALL-INNER
G1 F2700 E0
G1 F1200 X114.463 Y120.3 E0.01779
G1 X113.898 Y120.133 E0.03738
G1 X113.413 Y119.873 E0.05568
G1 X112.968 Y119.502 E0.07495
G1 X112.624 Y119.083 E0.09298
G1 X112.374 Y118.613 E0.11069
G1 X112.199 Y118.059 E0.13001
G1 X112.15 Y117.561 E0.14666
G1 X112.148 Y117.473 E0.14959
G1 X112.199 Y116.941 E0.16736
G1 X112.366 Y116.398 E0.18626
G1 X112.625 Y115.915 E0.20448
G1 X112.977 Y115.485 E0.22297
G1 X113.422 Y115.121 E0.24209
G1 X113.897 Y114.87 E0.25996
G1 X114.443 Y114.7 E0.27898
G1 X115.004 Y114.647 E0.29772
G1 X115.559 Y114.701 E0.31627
G1 X116.095 Y114.866 E0.33492
G1 X116.593 Y115.137 E0.35378
G1 X117.016 Y115.486 E0.37202
G1 X117.373 Y115.919 E0.39068
G1 X117.633 Y116.404 E0.40898
G1 X117.799 Y116.952 E0.42803
G1 X117.849 Y117.5 E0.44633
G1 X117.798 Y118.05 E0.4647
G1 X117.631 Y118.597 E0.48372
G1 X117.371 Y119.086 E0.50214
G1 X117.01 Y119.524 E0.52102
G1 X116.564 Y119.882 E0.54005
G1 X116.1 Y120.132 E0.55758
G1 X115.562 Y120.297 E0.57629
G1 X114.995 Y120.354 E0.59525
G0 F6000 X114.526 Y119.905
;TYPE:WALL-OUTER
G1 F1200 X114.053 Y119.761 E0.61169
G1 X113.64 Y119.54 E0.62727
G1 X113.272 Y119.24 E0.64306
G1 X112.957 Y118.856 E0.65958
G1 X112.735 Y118.439 E0.67529
G1 X112.592 Y117.969 E0.69163
G1 X112.548 Y117.522 E0.70657
G1 X112.593 Y117.025 E0.72317
G1 X112.74 Y116.548 E0.73977
G1 X112.959 Y116.14 E0.75517
G1 X113.261 Y115.771 E0.77103
G1 X113.632 Y115.465 E0.78703
G1 X114.055 Y115.238 E0.80299
G1 X114.509 Y115.098 E0.8188
G1 X114.978 Y115.05 E0.83448
G1 X115.477 Y115.096 E0.85114
G1 X115.936 Y115.236 E0.8671
G1 X116.353 Y115.458 E0.88282
G1 X116.723 Y115.759 E0.89868
G1 X117.032 Y116.133 E0.91482
G1 X117.255 Y116.545 E0.9304
G1 X117.403 Y117.025 E0.9471
G1 X117.449 Y117.499 E0.96294
G1 X117.403 Y117.974 E0.97882
G1 X117.265 Y118.43 E0.99466
G1 X117.04 Y118.855 E1.01066
G1 X116.728 Y119.236 E1.02704
G1 X116.364 Y119.535 E1.0427
G1 X115.953 Y119.757 E1.05824
G1 X115.481 Y119.903 E1.07467
G1 X114.978 Y119.95 E1.09148
G1 X114.526 Y119.905 E1.10658
G1 F2700 E-3.89342
G0 F6000 X114.377 Y120.384
G0 X109.433 Y135.075
G0 X109.125 Y137.561
;TYPE:WALL-INNER
G1 F2700 E1.10658
G1 F1200 X109.39 Y137.214 E1.12111
G1 X109.892 Y136.684 E1.14539
G1 X110.467 Y136.201 E1.17036
G1 X111.089 Y135.788 E1.19519
G1 X111.754 Y135.454 E1.21995
G1 X112.41 Y135.206 E1.24327
G1 X113.149 Y135.015 E1.26866
G1 X113.834 Y134.918 E1.29167
G1 X114.544 Y134.895 E1.3153
G1 X115.759 Y134.882 E1.35571
G1 X116.946 Y134.789 E1.39531
G1 X118.126 Y134.615 E1.43498
G1 X119.292 Y134.36 E1.47468
G1 X120.434 Y134.029 E1.51423
G1 X121.55 Y133.616 E1.5538
G1 X122.646 Y133.128 E1.59371
G1 X123.692 Y132.57 E1.63314
G1 X124.704 Y131.94 E1.67279
G1 X125.666 Y131.244 E1.71228
G1 X126.582 Y130.48 E1.75195
G1 X127.445 Y129.655 E1.79166
G1 X128.247 Y128.776 E1.83124
G1 X128.989 Y127.843 E1.87089
G1 X129.664 Y126.861 E1.91052
G1 X130.291 Y125.803 E1.95142
G1 X130.662 Y125.206 E1.9748
G1 X131.106 Y124.641 E1.9987
G1 X131.619 Y124.116 E2.02312
G1 X132.178 Y123.659 E2.04713
G1 X132.803 Y123.255 E2.07188
G1 X133.463 Y122.927 E2.0964
G1 X134.178 Y122.664 E2.12173
G1 X134.888 Y122.496 E2.146
G1 X135.304 Y122.444 E2.15995
G1 X134.907 Y122.339 E2.1736
G1 X134.284 Y122.09 E2.19592
G1 X133.659 Y121.73 E2.21991
G1 X133.098 Y121.29 E2.24362
G1 X132.618 Y120.792 E2.26663
G1 X132.186 Y120.2 E2.291
G1 X131.846 Y119.565 E2.31496
G1 X131.61 Y118.906 E2.33824
G1 X131.463 Y118.217 E2.36167
G1 X131.411 Y117.511 E2.38522
G1 X131.462 Y116.79 E2.40926
G1 X131.617 Y116.071 E2.43372
G1 X131.851 Y115.437 E2.4562
G1 X132.183 Y114.804 E2.47997
G1 X132.617 Y114.209 E2.50447
G1 X133.065 Y113.744 E2.52594
G1 X133.648 Y113.28 E2.55073
G1 X134.258 Y112.924 E2.57422
G1 X134.898 Y112.663 E2.5972
G1 X135.305 Y112.557 E2.61119
G1 X134.88 Y112.502 E2.62545
G1 X134.185 Y112.337 E2.64921
G1 X133.44 Y112.061 E2.67563
G1 X132.843 Y111.767 E2.69776
G1 X132.169 Y111.333 E2.72443
G1 X131.625 Y110.889 E2.74778
G1 X131.134 Y110.391 E2.77104
G1 X130.679 Y109.818 E2.79538
G1 X130.288 Y109.193 E2.8199
G1 X129.729 Y108.24 E2.85664
G1 X129.121 Y107.339 E2.8928
G1 X128.456 Y106.473 E2.92911
G1 X127.748 Y105.661 E2.96494
G1 X126.983 Y104.889 E3.00109
G1 X126.174 Y104.167 E3.03716
G1 X125.276 Y103.456 E3.07525
G1 X125.141 Y103.281 E3.0826
G1 X125.081 Y103.088 E3.08933
G1 X125.082 Y102.915 E3.09508
G1 X125.132 Y102.754 E3.10069
G1 X126.91 Y99.669 E3.21912
G1 X124.486 Y98.269 E3.31222
G1 X122.702 Y101.353 E3.43072
G1 X122.44 Y101.564 E3.44191
G1 X122.242 Y101.609 E3.44866
G1 X122.057 Y101.595 E3.45483
G1 X120.954 Y101.151 E3.49438
G1 X119.939 Y100.818 E3.52991
G1 X118.887 Y100.541 E3.56609
G1 X117.826 Y100.332 E3.60206
G1 X116.748 Y100.19 E3.63822
G1 X115.666 Y100.113 E3.6743
G1 X114.55 Y100.105 E3.71142
G1 X113.854 Y100.084 E3.73458
G1 X113.156 Y99.986 E3.75802
G1 X112.418 Y99.796 E3.78337
G1 X111.749 Y99.544 E3.80715
G1 X111.086 Y99.207 E3.83188
G1 X110.462 Y98.795 E3.85675
G1 X109.878 Y98.301 E3.88219
G1 X109.377 Y97.769 E3.9065
G1 X109.125 Y97.439 E3.92031
G1 X109.235 Y97.838 E3.93408
G1 X109.33 Y98.528 E3.95724
G1 X109.331 Y99.222 E3.98032
G1 X109.23 Y99.927 E4.00401
G1 X109.047 Y100.571 E4.02628
G1 X108.759 Y101.234 E4.05032
G1 X108.392 Y101.827 E4.07352
G1 X107.918 Y102.403 E4.09833
G1 X107.374 Y102.893 E4.12268
G1 X106.784 Y103.29 E4.14633
G1 X106.145 Y103.598 E4.16992
G1 X105.506 Y103.809 E4.19231
G1 X104.775 Y103.94 E4.21701
G1 X104.077 Y103.965 E4.24024
G1 X103.318 Y103.883 E4.26563
G1 X102.665 Y103.718 E4.28803
G1 X102.017 Y103.458 E4.31125
G1 X101.422 Y103.118 E4.33405
G1 X100.84 Y102.668 E4.35851
G1 X100.565 Y102.387 E4.37159
G1 X100.728 Y102.78 E4.38574
G1 X100.936 Y103.483 E4.41013
G1 X101.069 Y104.251 E4.43605
G1 X101.111 Y104.979 E4.4603
G1 X101.072 Y105.712 E4.48472
G1 X100.952 Y106.437 E4.50916
G1 X100.754 Y107.141 E4.53348
G1 X100.491 Y107.796 E4.55696
G1 X100.16 Y108.412 E4.58022
G1 X99.614 Y109.376 E4.61707
G1 X99.136 Y110.35 E4.65315
G1 X98.714 Y111.367 E4.68978
G1 X98.371 Y112.379 E4.72532
G1 X98.083 Y113.426 E4.76143
G1 X97.862 Y114.487 E4.79748
G1 X97.693 Y115.663 E4.83699
G1 X97.615 Y115.828 E4.84306
G1 X97.477 Y115.976 E4.84979
G1 X97.327 Y116.06 E4.85551
G1 X97.111 Y116.1 E4.86282
G1 X93.598 Y116.1 E4.97966
G1 X93.598 Y118.9 E5.07279
G1 X97.111 Y118.9 E5.18963
G1 X97.327 Y118.94 E5.19694
G1 X97.565 Y119.106 E5.20659
G1 X97.691 Y119.307 E5.21448
G1 X97.86 Y120.499 E5.25452
G1 X98.081 Y121.562 E5.29064
G1 X98.363 Y122.597 E5.32631
G1 X98.716 Y123.637 E5.36284
G1 X99.132 Y124.638 E5.3989
G1 X99.609 Y125.614 E5.43503
G1 X100.16 Y126.586 E5.47219
G1 X100.495 Y127.211 E5.49578
G1 X100.772 Y127.912 E5.52085
G1 X100.951 Y128.556 E5.54308
G1 X101.074 Y129.29 E5.56783
G1 X101.112 Y130.037 E5.59271
G1 X101.069 Y130.742 E5.6162
G1 X100.931 Y131.532 E5.64287
G1 X100.723 Y132.233 E5.66719
G1 X100.565 Y132.613 E5.68088
G1 X100.853 Y132.322 E5.6945
G1 X101.415 Y131.887 E5.71814
G1 X102.013 Y131.543 E5.74108
G1 X102.664 Y131.283 E5.7644
G1 X103.34 Y131.112 E5.78759
G1 X104.038 Y131.036 E5.81094
G1 X104.775 Y131.058 E5.83547
G1 X105.48 Y131.184 E5.85929
G1 X106.14 Y131.399 E5.88237
G1 X106.772 Y131.703 E5.9057
G1 X107.374 Y132.107 E5.92981
G1 X107.893 Y132.572 E5.95299
G1 X108.364 Y133.133 E5.97735
G1 X108.742 Y133.733 E6.00094
G1 X109.037 Y134.397 E6.0251
G1 X109.228 Y135.065 E6.04821
G1 X109.328 Y135.76 E6.07157
G1 X109.33 Y136.475 E6.09535
G1 X109.234 Y137.176 E6.11888
G1 X109.125 Y137.561 E6.13219
G1 F2700 E1.13219
G0 F6000 X108.242 Y139.03
G0 X107.795 Y139.564
G0 X107.282 Y140.026
G0 X106.718 Y140.407
G0 X106.098 Y140.711
G0 X105.568 Y140.882
G0 X104.013 Y141.124
G1 F2700 E6.13219
G0 F6000 X104.039 Y140.88
;TYPE:WALL-OUTER
G1 F967.7 X103.429 Y140.811 E6.15751
G1 F965.8 X102.791 Y140.654 E6.18466
G1 F961.9 X102.146 Y140.396 E6.21348
G1 X101.593 Y140.075 E6.24001
G1 F963.9 X101.055 Y139.654 E6.2683
G1 F965.8 X100.594 Y139.172 E6.29586
G1 F967.7 X100.214 Y138.649 E6.32253
G1 F969.7 X99.917 Y138.103 E6.34811
G1 F963.9 X99.761 Y137.69 E6.36639
G1 X99.678 Y137.446 E6.37706
G1 F971.7 X99.54 Y136.802 E6.40412
G1 F960 X99.515 Y136.524 E6.41572
G1 X99.494 Y136.159 E6.43092
G1 F961.9 X99.503 Y135.915 E6.44105
G1 F960 X99.537 Y135.479 E6.45923
G1 F967.7 X99.672 Y134.834 E6.48641
G1 F965.8 X99.893 Y134.227 E6.51311
G1 F963.9 X100.205 Y133.629 E6.54104
G1 F977.6 X100.392 Y133.353 E6.55465
G1 F1006.3 X100.58 Y133.076 E6.56793
G1 F1059.6 X100.84 Y132.856 E6.58076
G1 F1151.1 X101.101 Y132.636 E6.59259
G1 F1200 X101.616 Y132.233 E6.61434
G1 X102.179 Y131.907 E6.63598
G1 X102.788 Y131.663 E6.6578
G1 X103.418 Y131.504 E6.67941
G1 X104.069 Y131.435 E6.70119
G1 X104.744 Y131.459 E6.72365
G1 X105.394 Y131.575 E6.74561
G1 X106.011 Y131.779 E6.76722
G1 X106.582 Y132.055 E6.78832
G1 X107.132 Y132.425 E6.81037
G1 X107.626 Y132.871 E6.8325
G1 X108.039 Y133.366 E6.85394
G1 X108.391 Y133.925 E6.87592
G1 X108.661 Y134.535 E6.8981
G1 X108.839 Y135.16 E6.91972
G1 X108.929 Y135.793 E6.94098
G1 X108.929 Y136.474 E6.96363
G1 X108.84 Y137.1 E6.98466
G1 F1151.1 X108.779 Y137.439 E6.99661
G1 F1059.6 X108.717 Y137.779 E7.00962
G1 F1008.4 X108.575 Y138.073 E7.02255
G1 F983.6 X108.432 Y138.367 E7.03581
G1 F965.8 X108.114 Y138.878 E7.06068
G1 X107.651 Y139.438 E7.09071
G1 F973.6 X107.157 Y139.881 E7.11791
G1 F975.6 X106.667 Y140.219 E7.14227
G1 F973.6 X106.021 Y140.533 E7.17171
G1 F969.7 X105.399 Y140.737 E7.19865
G1 F971.7 X104.746 Y140.853 E7.2259
G1 F969.7 X104.039 Y140.88 E7.25502
G0 F6000 X103.854 Y141.366
G1 F952.4 X104.526 Y141.372 E7.28318
G1 F961.9 X104.831 Y141.34 E7.2959
G1 X105.21 Y141.288 E7.31178
G1 F960 X105.52 Y141.216 E7.32501
G1 F961.9 X105.838 Y141.129 E7.33869
G1 X106.201 Y140.993 E7.35477
G1 X106.478 Y140.878 E7.36722
G1 F954.3 X107.073 Y140.549 E7.39565
G1 F956.2 X107.581 Y140.184 E7.42176
G1 F958.1 X108.103 Y139.685 E7.45185
G1 X108.531 Y139.154 E7.48026
G1 F965.8 X108.856 Y138.624 E7.50595
G1 F948.6 X109.036 Y138.305 E7.52136
G1 F905.7 X109.216 Y137.986 E7.5375
G1 F904 X109.241 Y137.969 E7.53884
G1 F979.6 X109.447 Y137.748 E7.55115
G1 F1116.3 X109.653 Y137.527 E7.56195
G1 F1200 X109.703 Y137.464 E7.56462
G1 X110.168 Y136.974 E7.58709
G1 X110.706 Y136.522 E7.61046
G1 X111.286 Y136.136 E7.63364
G1 X111.896 Y135.828 E7.65636
G1 X112.521 Y135.591 E7.6786
G1 X113.205 Y135.411 E7.70212
G1 X113.874 Y135.316 E7.7246
G1 X114.548 Y135.295 E7.74702
G1 X115.777 Y135.282 E7.7879
G1 X116.991 Y135.187 E7.8284
G1 X118.198 Y135.009 E7.86898
G1 X119.39 Y134.748 E7.90957
G1 X120.559 Y134.409 E7.95005
G1 X121.701 Y133.987 E7.99054
G1 X122.822 Y133.488 E8.03136
G1 X123.892 Y132.916 E8.07171
G1 X124.927 Y132.272 E8.11225
G1 X125.912 Y131.56 E8.15268
G1 X126.849 Y130.778 E8.19327
G1 X127.731 Y129.935 E8.23385
G1 X128.552 Y129.036 E8.27434
G1 X129.311 Y128.081 E8.31492
G1 X130.001 Y127.077 E8.35544
G1 X130.631 Y126.013 E8.39656
G1 X130.992 Y125.432 E8.41931
G1 X131.408 Y124.903 E8.4417
G1 X131.898 Y124.403 E8.46498
G1 X132.44 Y123.963 E8.4882
G1 X133.021 Y123.591 E8.51115
G1 X133.62 Y123.295 E8.53337
G1 X134.272 Y123.054 E8.55649
G1 X134.946 Y122.893 E8.57954
G1 X135.026 Y122.883 E8.58222
G1 F1116.3 X135.313 Y122.816 E8.59276
G1 F977.6 X135.601 Y122.749 E8.60483
G1 F902.3 X135.628 Y122.736 E8.60615
G1 X135.973 Y122.74 E8.62142
G1 F941.2 X136.318 Y122.744 E8.63605
G1 F960 X136.984 Y122.728 E8.66374
G1 F956.2 X137.644 Y122.624 E8.69163
G1 F954.3 X138.344 Y122.42 E8.72213
G1 F952.4 X138.921 Y122.163 E8.7486
G1 F963.9 X139.155 Y122.029 E8.75977
G1 X139.491 Y121.819 E8.77617
G1 F965.8 X139.742 Y121.629 E8.78918
G1 X140.029 Y121.394 E8.80451
G1 F963.9 X140.286 Y121.138 E8.81953
G1 X140.495 Y120.915 E8.83219
G1 X140.75 Y120.585 E8.84946
G1 X140.901 Y120.376 E8.86013
G1 F954.3 X141.236 Y119.786 E8.88851
G1 F956.2 X141.495 Y119.146 E8.91733
G1 F958.1 X141.664 Y118.506 E8.94491
G1 F960 X141.751 Y117.843 E8.97271
G1 X141.751 Y117.161 E9.00106
G1 X141.665 Y116.501 E9.02873
G1 F958.1 X141.497 Y115.86 E9.05634
G1 F954.3 X141.215 Y115.162 E9.08782
G1 F952.4 X140.907 Y114.634 E9.11344
G1 F960 X140.73 Y114.389 E9.12601
G1 F961.9 X140.498 Y114.088 E9.14177
G1 F963.9 X140.275 Y113.85 E9.15528
G1 X140.031 Y113.609 E9.16948
G1 X139.743 Y113.372 E9.18493
G1 X139.503 Y113.189 E9.19742
G1 X139.142 Y112.964 E9.21504
G1 X138.917 Y112.835 E9.22578
G1 F956.2 X138.294 Y112.566 E9.2541
G1 F958.1 X137.658 Y112.379 E9.28172
G1 F960 X136.99 Y112.273 E9.30984
G1 F963.9 X136.379 Y112.258 E9.33515
G1 F979.6 X136.017 Y112.261 E9.3499
G1 F1006.3 X135.655 Y112.264 E9.36426
G1 F1059.6 X135.338 Y112.191 E9.37651
G1 F1151.1 X135.019 Y112.117 E9.38786
G1 F1200 X134.932 Y112.104 E9.39079
G1 X134.27 Y111.945 E9.41343
G1 X133.617 Y111.702 E9.43661
G1 X133 Y111.397 E9.4595
G1 X132.421 Y111.023 E9.48242
G1 X131.895 Y110.594 E9.505
G1 X131.406 Y110.095 E9.52824
G1 X130.98 Y109.552 E9.55119
G1 X130.633 Y108.991 E9.57313
G1 X130.067 Y108.027 E9.61031
G1 X129.446 Y107.105 E9.64729
G1 X128.766 Y106.219 E9.68443
G1 X128.041 Y105.389 E9.72109
G1 X127.259 Y104.599 E9.75806
G1 X126.432 Y103.861 E9.79493
G1 X125.542 Y103.158 E9.83265
G1 X125.477 Y103.035 E9.83728
G1 X125.494 Y102.923 E9.84104
G1 X127.456 Y99.523 E9.97161
G1 X124.34 Y97.723 E10.09129
G1 X122.356 Y101.156 E10.22317
G1 X122.176 Y101.207 E10.22939
G1 X121.091 Y100.775 E10.26824
G1 X120.052 Y100.434 E10.30461
G1 X118.977 Y100.151 E10.34158
G1 X117.891 Y99.937 E10.3784
G1 X116.788 Y99.792 E10.4154
G1 X115.682 Y99.713 E10.45228
G1 X114.562 Y99.705 E10.48953
G1 X113.87 Y99.684 E10.51256
G1 X113.202 Y99.588 E10.535
G1 X112.528 Y99.411 E10.55818
G1 X111.883 Y99.166 E10.58113
G1 X111.286 Y98.861 E10.60342
G1 X110.696 Y98.47 E10.62697
G1 X110.168 Y98.025 E10.64993
G1 X109.695 Y97.526 E10.6728
G1 X109.645 Y97.461 E10.67553
G1 F1106 X109.425 Y97.226 E10.68714
G1 F952.4 X109.204 Y96.99 E10.70069
G1 F909.1 X109.027 Y96.677 E10.71648
G1 F944.9 X108.849 Y96.364 E10.73169
G1 F961.9 X108.531 Y95.846 E10.75691
G1 F958.1 X108.079 Y95.285 E10.78692
G1 F956.2 X107.572 Y94.809 E10.81595
G1 F954.3 X107.08 Y94.456 E10.84128
G1 F963.9 X106.847 Y94.319 E10.85247
G1 F965.8 X106.491 Y94.128 E10.86917
G1 F961.9 X106.196 Y94.005 E10.88243
G1 X105.844 Y93.873 E10.89803
G1 X105.513 Y93.783 E10.91226
G1 X105.201 Y93.71 E10.92555
G1 X104.799 Y93.656 E10.94238
G1 X104.533 Y93.629 E10.95348
G1 F952.4 X103.922 Y93.626 E10.97908
G1 F954.3 X103.198 Y93.725 E11.00965
G1 F958.1 X102.558 Y93.897 E11.03725
G1 F961.9 X101.921 Y94.159 E11.06583
G1 X101.337 Y94.496 E11.09381
G1 F960 X100.793 Y94.912 E11.12228
G1 F958.1 X100.319 Y95.382 E11.15009
G1 F956.2 X99.868 Y95.962 E11.18075
G1 F952.4 X99.557 Y96.503 E11.20691
G1 F958.1 X99.441 Y96.763 E11.21877
G1 F960 X99.292 Y97.129 E11.2352
G1 F963.9 X99.202 Y97.427 E11.24809
G1 F961.9 X99.111 Y97.767 E11.26269
G1 X99.051 Y98.133 E11.27808
G1 X99.012 Y98.436 E11.29075
G1 F952.4 X98.999 Y99.109 E11.31896
G1 X99.073 Y99.778 E11.34717
G1 F956.2 X99.234 Y100.437 E11.37549
G1 F960 X99.482 Y101.078 E11.40406
G1 F963.9 X99.775 Y101.616 E11.42943
G1 F979.6 X99.956 Y101.922 E11.44392
G1 F1006.3 X100.137 Y102.228 E11.45802
G1 F1059.6 X100.23 Y102.539 E11.47024
G1 F1151.1 X100.324 Y102.851 E11.48154
G1 F1200 X100.352 Y102.918 E11.48396
G1 X100.548 Y103.579 E11.50689
G1 X100.667 Y104.254 E11.52968
G1 X100.711 Y104.937 E11.55245
